!!!COM: L van Beethoven
!!!OTL: String Quartet No12 Op127
**kern	**dynam	**kern	**dynam	**kern	**dynam	**kern	**dynam	**mxhm
*part4	*part4	*part3	*part3	*part2	*part2	*part1	*part1	*part1
*staff4	*	*staff3	*	*staff2	*	*staff1	*	*
*I"Violoncello	*	*I"Viola	*	*I"Violin II	*	*I"Violin I	*	*
*I'Vc.	*	*I'Vla.	*	*I'Vln. II	*	*I'Vln. I	*	*
*clefF4	*	*clefC3	*	*clefG2	*	*clefG2	*	*
*k[b-e-a-]	*	*k[b-e-a-]	*	*k[b-e-a-]	*	*k[b-e-a-]	*	*
*M2/2	*	*M2/2	*	*M2/2	*	*M2/2	*	*
*met(c|)	*	*met(c|)	*	*met(c|)	*	*met(c|)	*	*
=1	=1	=1	=1	=1	=1	=1	=1	=1
!	!	!	!LO:DY:a	!	!LO:DY:a	!LO:TX:a:B:t=Finale	!	!
4GG'	f	4G'	f f	4G' 4g	f	4G' 4g	.	.Eb.I6
4G'	.	4G'	.	4g'	.	4gg'	.	.
[2A-	sf	[2A-	sf	[2a-	sf	[2aa-	sf	viio
=2	=2	=2	=2	=2	=2	=2	=2	=2
(4A-]	p	(4A-]	p	(4a-]	p	(4aa-]	p	.
4F	.	4F	.	4f	.	4ff	.	.
4D	.	4D	.	4d	.	4dd	.	.
4E-	.	4E-	.	4e-	.	4ee-	.	I
=3	=3	=3	=3	=3	=3	=3	=3	=3
4BBn	.	4Bn	.	4Bn	.	4bn	.	.
4C	.	4c	.	4c	.	4cc	.	.
4AAn	.	4An	.	4An	.	4an	.	.
4BB-X	.	4B-X	.	4B-X	.	4b-X	.	I
=4	=4	=4	=4	=4	=4	=4	=4	=4
4GG	.	4G	.	4G	.	4g	.	.
4AA-X	.	4A-X	.	4A-X	.	4a-X	.	ii
4FF	.	4F	.	4f	.	4f	.	.
4BB-)	.	4B-)	.	[4B-)	.	4b-)	.	V
=5	=5	=5	=5	=5	=5	=5	=5	=5
(2EE-	.	[1E-	.	1B-_	.	(8e-L	p	I[I
.	.	.	.	.	.	8b-	.	.
.	.	.	.	.	.	8g	.	.
.	.	.	.	.	.	8e-J	.	.
2FF	.	.	.	.	.	2a-)	.	V43
=6	=6	=6	=6	=6	=6	=6	=6	=6
2EE-	.	1E-_	.	1B-_	.	(8e-L	.	I
.	.	.	.	.	.	8b-	.	.
.	.	.	.	.	.	8g	.	.
.	.	.	.	.	.	8e-J	.	.
2FF	.	.	.	.	.	2a-)	.	V43
=7	=7	=7	=7	=7	=7	=7	=7	=7
2EE-)	.	(2E-]	.	(2B-]	.	(8e-L	.	I
.	.	.	.	.	.	8b-	.	.
.	.	.	.	.	.	8g	.	.
.	.	.	.	.	.	8e-J	.	.
[2FF	<	[2E-)	<	[2B-)	<	(2an)	<	V43(+#4)
=8	=8	=8	=8	=8	=8	=8	=8	=8
1FF]	>]	(2.E-]	>	2.B-]	>	4b-	>	V43
.	.	.	.	.	.	4cc	.	.
.	.	.	.	.	.	4a-X	.	.
.	.	4D	]]	(8B-L	.	4f	]]	V43]
.	.	.	.	8A-J	]]	.	.	.
=9	=9	=9	=9	=9	=9	=9	=9	=9
(2GG	]	4E-	]	4G)	]	4e-	]	I6
.	.	4F	.	[2.B-	.	4d	.	.
2AA-	.	4E-	.	.	.	4c	.	V2
.	.	4D	.	.	.	4B-	.	.
=10	=10	=10	=10	=10	=10	=10	=10	=10
2GG	.	4E-	.	(2B-]	.	4c	.	vi43
.	.	4F	.	.	.	4d	.	.
2FF)	.	4G	.	4c	.	4e-	.	viio6
.	.	4A-	.	4d	.	4f	.	.
=11	=11	=11	=11	=11	=11	=11	=11	=11
(4EE-	.	4G	.	4B- 4e-	.	4g	.	I
4CC	.	4E-	.	4g	.	4b-	.	vi7
4DD	.	4F	.	4f	.	4a-	.	V65
4EE-	.	4G	.	4e-)	.	4g)	.	I
=12	=12	=12	=12	=12	=12	=12	=12	=12
4BB-	.	4G	.	(2e-	.	(4g	.	I64
4AAn	.	4c	.	.	.	4f)	.	V65/V
4BB-)	.	4B-)	.	4d)	.	4f	.	V\\
(4DD	.	(4F	.	(4A-X	.	4r	.	viio
=13	=13	=13	=13	=13	=13	=13	=13	=13
(2EE-)	.	[1E-)	.	4G	.	(8e-L	p	I[I
.	.	.	.	.	.	8b-	.	.
.	.	.	.	[2.B-)	.	8g	.	.
.	.	.	.	.	.	8e-J	.	.
2FF	.	.	.	.	.	2a-)	.	V43
=14	=14	=14	=14	=14	=14	=14	=14	=14
2EE-	.	1E-_	.	1B-_	.	(8e-L	.	I
.	.	.	.	.	.	8b-	.	.
.	.	.	.	.	.	8g	.	.
.	.	.	.	.	.	8e-J	.	.
2FF	.	.	.	.	.	2a-)	.	V43
=15	=15	=15	=15	=15	=15	=15	=15	=15
2EE-)	.	(2E-]	.	(2B-]	.	(8e-L	.	I
.	.	.	.	.	.	8b-	.	.
.	.	.	.	.	.	8g	.	.
.	.	.	.	.	.	8e-J	.	.
[2FF	<	[2E-)	<	[2B-)	<	(2an)	<	V43(+#4)
=16	=16	=16	=16	=16	=16	=16	=16	=16
1FF]	>]	(2.E-]	>	2.B-]	>	4b-	.	V64
.	.	.	.	.	.	4cc	.	.
.	.	.	.	.	.	4a-X	[ >	V43
.	.	4D	] ]]	(8B-L	]	4f	]]	V43]
.	.	.	.	8A-J)	]]	.	.	.
=17	=17	=17	=17	=17	=17	=17	=17	=17
(2GG	]	4E-	.	4G	.	4e-	.	I6
.	.	4F	.	[2.B-	.	4d	.	.
2AA-	.	4E-	.	.	.	4c	.	V2
.	.	4D	.	.	.	4B-	.	.
=18	=18	=18	=18	=18	=18	=18	=18	=18
2GG	.	4E-	.	2B-]	.	4c	.	vi43
.	.	4F	.	.	.	4d	.	.
2FF	.	4G	.	4c	.	4e-	.	viio6
.	.	4A-	.	4d	.	4f	.	.
=19	=19	=19	=19	=19	=19	=19	=19	=19
4EE-	.	4B-	.	2.e-	.	4g	.	I
4DD-X	.	4G	.	.	.	4b-	.	V2/IV
4CC	.	4E-	.	.	.	4a-	.	IV6
4DDn)	.	4F	.	8B-L	.	4f)	.	V6
.	.	.	.	8A-J	.	.	.	.
=20	=20	=20	=20	=20	=20	=20	=20	=20
(4EE-	.	4D	.	4A-	.	(4f	.	I(9+74)
4BB-	.	4E-)	.	4G	.	4e-)	.	I64
4E-)	.	4E-	.	4G	.	4e-	.	I\\
4r	.	4r	.	4r	.	(4b-	<	.
=21	=21	=21	=21	=21	=21	=21	=21	=21
2r	.	2r	.	1r	.	4ee-	.	I
.	.	.	.	.	.	4dd	.	.
4r	.	4r	.	.	.	4ee-	.	.
(4B-	<	4e-	<	.	.	4gg	[[	.
=22	=22	=22	=22	=22	=22	=22	=22	=22
4c	.	(4e-	.	2r	.	4b-	>	vi7
4d	[ >	4f	[ >	.	.	4a-	.	viio
4e-)	.	4g)	.	4r	.	4g)	.	I\\
4e-	]]	4g	]]	4cc	.	4ee-	]	vi6
=23	=23	=23	=23	=23	=23	=23	=23	=23
.	.	.	.	32qqcc/LLL	f	32qqee-/LLL	f	V7/V
.	.	.	.	32qqdd/JJJ	.	32qqff/JJJ	.	.
4f	f	(4an	f	(4cc	.	(4ee-	.	.
4r	.	4An)	.	4e-)	.	4cc)	.	.
.	.	.	.	32qqd/LLL	.	32qqb-/LLL	.	V(64)/V
.	.	.	.	32qqe-/JJJ	.	32qqcc/JJJ	.	.
4F	.	(4f	.	(4d	.	(4b-	.	.
4r	.	4e-)	.	4c)	.	4an)	.	V7/V
=24	=24	=24	=24	=24	=24	=24	=24	=24
.	.	.	.	32qqe-/LLL	.	32qqcc/LLL	.	.
.	.	.	.	32qqf/JJJ	.	32qqdd/JJJ	.	.
(4F	.	(4An	.	(4e-	.	(4cc	.	.
4B-)	.	4B-)	.	4d)	.	4b-)	.	V
4B-	.	4B-	.	4d	.	4b-	.	V\\
4r	.	4r	.	4r	.	(4b-	p	.
=25	=25	=25	=25	=25	=25	=25	=25	=25
2r	.	2r	.	2r	.	4ee-	<	I
.	.	.	.	.	.	4dd	.	.
4r	.	4r	.	4r	.	4ee-	.	.
(4B-	p <	4e-	p <	(4g	p <	4gg	[[	I64
=26	=26	=26	=26	=26	=26	=26	=26	=26
4c	.	(4e-	.	4a-X	.	4b-	>	IV6(9)
4d	.	4f	.	4b-)	.	4a-X	.	V65
4e-)	[ >	4g)	[ >	4b-	[ >	4g)	.	I
4C	]]	4E-	]]	4a-	]]	4ee-	]	IV6
=27	=27	=27	=27	=27	=27	=27	=27	=27
.	.	.	.	.	.	32qqee-/LLL	f	.
.	.	.	.	.	.	32qqff/JJJ	.	.
4C	f	4E-	f	4a-	f	(4ee-	.	.
4r	.	4r	.	4r	.	4cc)	.	.
.	.	.	.	32qqg/LLL	.	32qqb-/LLL	.	.
.	.	.	.	32qqa-/JJJ	.	32qqcc/JJJ	.	.
(4C	.	(4E-	.	(4g	.	(4b-	.	.
4D)	.	4F)	.	4f)	.	4a-)	.	viio
=28	=28	=28	=28	=28	=28	=28	=28	=28
(4E-	.	(4G	.	(4e-	.	(4g	.	I
4BB-	.	4F	.	4d	.	8a-L	.	V7
.	.	.	.	.	.	8fJ	.	.
4E-)	.	4G)	.	4e-)	.	4e-)	.	I\\
4r	.	(4B-	p	[4g	p	4r	.	I64
=29	=29	=29	=29	=29	=29	=29	=29	=29
1r	.	4e-	<	(4g]	<	2r	.	I
.	.	4d	.	4f	.	.	.	.
.	.	4e-	.	4g	.	4r	.	.
.	.	4g	[[	4b-	[[	([4ee-	p	I6
=30	=30	=30	=30	=30	=30	=30	=30	=30
2r	.	4B-	>	4g	>	4ee-]	.	I64
.	.	4A-	.	4f	.	4dd	.	viio64
4r	.	4G)	.	4e-)	.	4ee-)	.	I6
4E-	.	(8E-L	]	(8gL	]	(8ggL	.	I
.	.	8FJ	.	8a-J	.	8aa-J	.	.
=31	=31	=31	=31	=31	=31	=31	=31	=31
32qqE-/LLL	f	.	.	.	.	.	.	.
32qqF/JJJ	.	.	.	.	.	.	.	.
(4E-	.	4G')	f	4b-')	f	4bb-')	f	.
4C)	.	(8A-L	.	(8ccL	.	(8cccL	.	IV6
.	.	8B-J	.	8ddJ	.	8dddJ	.	.
32qqBB-/LLL	.	.	.	.	.	.	.	.
32qqC/JJJ	.	.	.	.	.	.	.	.
(4BB-	.	4c')	.	4ee-')	.	4eee-')	.	vi2
4AAn)	.	(8dL	.	(8ffL	.	(8fffL	.	viio64
.	.	8e-J)	.	8ggJ)	.	8gggJ)	.	.
=32	=32	=32	=32	=32	=32	=32	=32	=32
32qqC/LLL	.	.	.	.	.	.	.	.
32qqD/JJJ	.	.	.	.	.	.	.	.
(4C	.	(4e-	.	(4gg	.	(4ggg	.	vi
4BB-)	.	4f)	.	4aa-)	.	4aaa-)	.	V7
4BB-	.	4d'	.	4ff'	.	4fff'	.	V
(4A-X	p	(4B-	p	(4d 4f	p	4r	.	V2
=33	=33	=33	=33	=33	=33	=33	=33	=33
4G	<	4e-	<	4g	<	2r	.	I6
4F	.	4d	.	4f	.	.	.	.
4G	.	4e-	.	4g	.	4r	.	.
4B-	[[	4g	[[	4b-	[[	(4ee-	p < [[	I64
=34	=34	=34	=34	=34	=34	=34	=34	=34
4C	>	4B-	>	4c	>	4b-	>	vi7
4D	.	4A-	.	4d	.	4a-	.	viio
4E-)	]	4G)	]	4e-)	]	4g)	]	I
4E-	.	(8E-L	.	(8GL	.	(8gL	.	.
.	.	8FJ	.	8A-J	.	8a-J	.	.
=35	=35	=35	=35	=35	=35	=35	=35	=35
32qqE-/LLL	f	.	.	.	.	.	.	.
32qqF/JJJ	.	.	.	.	.	.	.	.
(4E-	.	4G')	f	4B-')	f	4b-')	f	.
4C)	.	(8cL	.	(8e-L	.	(8ee-L	.	vi
.	.	8dJ	.	8fJ	.	8ffJ	.	.
32qqBB-/LLL	.	.	.	.	.	.	.	.
32qqC/JJJ	.	.	.	.	.	.	.	.
(4BB-	.	4e-')	.	4g')	.	4gg')	.	I64
4AA-)	.	(8e-L	.	(8gL	.	(8ggL	.	ii6
.	.	8fJ	.	8a-J	.	8aa-J	.	.
=36	=36	=36	=36	=36	=36	=36	=36	=36
(4GG	.	4g')	.	4b-')	.	4bb-')	.	I6
8AA-L	.	(8e-L	.	(8ccL	.	(8cccL	.	IV
8FFJ	.	8A-J	.	8ddJ	.	8dddJ	.	viio6
4EE-')	.	4G')	.	4ee-')	.	4eee-')	.	I
(8AA-L	>	(8E-L	>	(8cL	>	4eee-	>]	IV
8FFJ)	]]	8FJ)	]]	8dJ)	]]	.	.	.
=37	=37	=37	=37	=37	=37	=37	=37	=37
(8EE-L	pp	(2G	pp	(2e-	pp	(4eee-	pp	I
8BB-	.	.	.	.	.	.	.	.
8GG	.	.	.	.	.	[2.bb-)	.	V2
8EE-J	.	.	.	.	.	.	.	.
2AA-)	.	2F	.	8dL	.	.	.	.
.	.	.	.	8f	.	.	.	.
.	.	.	.	8d	.	.	.	.
.	.	.	.	8B-J)	.	.	.	.
=38	=38	=38	=38	=38	=38	=38	=38	=38
(8EE-L	.	2E-	.	(4g	.	1bb-_	.	V2
8BB-	.	.	.	.	.	.	.	.
8GG	.	.	.	4e-	.	.	.	.
8EE-J	.	.	.	.	.	.	.	.
2AA-)	.	2F)	.	8dL	.	.	.	.
.	.	.	.	8f	.	.	.	.
.	.	.	.	8d	.	.	.	.
.	.	.	.	8B-J)	.	.	.	.
=39	=39	=39	=39	=39	=39	=39	=39	=39
!	!	!LO:TX:b:i:t=sempre pp	!	!	!	!	!	!
!	!	!LO:TX:a:i:t=sempre pp	!	!	!	!	!	!
(8EE-L	.	1E-	.	(4g	.	(4bb-]	.	I
8BB-	.	.	.	.	.	.	.	.
!	!	!	!	!	!	!LO:TX:b:i:t=sempre pp	!	!
8GG	.	.	.	[4e-)	.	4eee-	.	.
8EE-J	.	.	.	.	.	.	.	.
!LO:TX:b:i:t=sempre pp	!	!	!	!	!	!	!	!
2AAn)	.	.	.	(8e-L]	.	2ccc)	.	#viio7/V
.	.	.	.	8g-X	.	.	.	.
.	.	.	.	8f	.	.	.	.
.	.	.	.	8e-J)	.	.	.	.
=40	=40	=40	=40	=40	=40	=40	=40	=40
(4BB-	.	(8cL	.	(8e-L	.	4ff	.	V
.	.	8B-)	.	8d	.	.	.	.
4C	.	8D	.	8f	.	4ff	.	viio2
.	.	8DJ	.	8dJ	.	.	.	.
4AA-	.	(8E-L	.	8cL	.	4bb-	.	IV(9)
.	.	8D	.	8B-	.	.	.	.
4FF	.	8E-	.	8c	.	(4bb-	.	V43
.	.	8FJ)	.	8dJ)	.	.	.	.
=41	=41	=41	=41	=41	=41	=41	=41	=41
2EE-)	.	(8GL	.	(4e-	.	(4bb-)	.	I
.	.	8B-	.	.	.	.	.	.
.	.	8G	.	[2.b-)	.	4ee-	.	.
.	.	8E-J	.	.	.	.	.	.
(8DDL	.	2A-)	.	.	.	4ff	.	V65
8BB-	.	.	.	.	.	.	.	.
8FF	.	.	.	.	.	4b-)	.	.
8DDJ	.	.	.	.	.	.	.	.
=42	=42	=42	=42	=42	=42	=42	=42	=42
2EE-)	.	(8GL	.	1b-_	.	4r	.	I
.	.	8B-	.	.	.	.	.	.
.	.	8G	.	.	.	(4eee-	.	.
.	.	8E-J	.	.	.	.	.	.
(8DDL	.	2A-)	.	.	.	4fff	.	V65
8BB-	.	.	.	.	.	.	.	.
8FF	.	.	.	.	.	4bb-)	.	.
8DDJ	.	.	.	.	.	.	.	.
=43	=43	=43	=43	=43	=43	=43	=43	=43
(2EE-)	.	(8E-L	.	(2b-]	.	(4ggg	.	I
.	.	8B-	.	.	.	.	.	.
.	.	8G	.	.	.	4eee-	.	.
.	.	8E-J	.	.	.	.	.	.
(8DDL)	.	2An)	.	2cc)	.	4ccc	.	vii7
8GG-X	.	.	.	.	.	.	.	.
8FF	.	.	.	.	.	4fff)	.	.
8EE-J	.	.	.	.	.	.	.	.
=44	=44	=44	=44	=44	=44	=44	=44	=44
4DD	.	(4B-	.	(4dd	.	(4fff	.	V.I6
4CC)	.	4c	.	4ee-	.	4eee-)	.	V43
4FF	.	4An	.	4cc	.	4eee-	.	V7
4F	.	4F)	.	4an)	.	4eee-	.	.
=45	=45	=45	=45	=45	=45	=45	=45	=45
!LO:TX:b:i:t=sempre pp	!	!	!	!	!	!	!	!
[1F	.	(8FL	.	(8B-L	.	4ddd	.	V[I64
.	.	8d	.	8f	.	.	.	.
.	.	8B-	.	8d	.	4r	.	.
.	.	8FJ	.	8B-J	.	.	.	.
!	!	!LO:TX:b:i:t=sempre pp	!	!LO:TX:b:i:t=sempre pp	!	!LO:TX:b:i:t=sempre pp	!	!
.	.	8E-L	.	2e-)	.	(8gL	.	V2(2)
.	.	8F	.	.	.	8cc	.	.
.	.	8E-	.	.	.	8an	.	V2
.	.	8FJ)	.	.	.	8fJ	.	.
=46	=46	=46	=46	=46	=46	=46	=46	=46
1F_	.	(8FL	.	(8B-L	.	4dd	.	I64
.	.	8d	.	8f	.	.	.	.
.	.	8B-	.	8d	.	4b-	.	.
.	.	8FJ	.	8B-J	.	.	.	.
.	.	8E-L	.	2e-)	.	8gL	.	V2(2)
.	.	8F	.	.	.	8cc	.	.
.	.	8E-	.	.	.	8an	.	V2
.	.	8FJ)	.	.	.	8fJ	.	.
=47	=47	=47	=47	=47	=47	=47	=47	=47
1F]	.	(8FL	.	(8B-L	.	4dd)	.	I64
.	.	8d	.	8f	.	.	.	.
.	.	8B-	.	8d	.	(8ffL	.	.
.	.	8FJ	.	8B-J	.	8ddJ	.	.
.	.	8B-L	.	2en)	.	8dd-XL	.	#ivo43
.	.	8An	.	.	.	8cc	.	.
.	.	8B-	.	.	.	8dd-	.	.
.	.	8GJ)	.	.	.	8b-J	.	.
=48	=48	=48	=48	=48	=48	=48	=48	=48
4F	.	4F	.	(4f	.	8b-L	.	V
.	.	.	.	.	.	8an	.	.
2f	.	4r	.	4g	.	8b-	.	.
.	.	.	.	.	.	8ccJ	.	.
.	.	2r	.	4e-X	.	8gL	.	V2
.	.	.	.	.	.	8f	.	.
[4f	.	.	.	4c)	.	8g	.	V43]
.	.	.	.	.	.	8aJ)	.	.
=49	=49	=49	=49	=49	=49	=49	=49	=49
(4f]	.	2r	.	(8dL	.	(8b-L	.	I6
.	.	.	.	8dd	.	8ff	.	.
4B-	.	.	.	8f	.	8ddn	.	.
.	.	.	.	8dJ	.	8b-J	.	.
8AnL	.	(8fL	.	2cc)	.	2ee-)	.	V65
8f	.	8cc	.	.	.	.	.	.
8c	.	8an	.	.	.	.	.	.
8AJ)	.	8fJ	.	.	.	.	.	.
=50	=50	=50	=50	=50	=50	=50	=50	=50
(4f	.	4dd)	.	(8dL	.	(8b-L	.	I6
.	.	.	.	8dd	.	8ff	.	.
4B-	.	4r	.	8f	.	8dd	.	.
.	.	.	.	8dJ	.	8b-J	.	.
8AnL	.	(8fL	.	2cc)	.	2ee-)	.	V65
8f	.	8cc	.	.	.	.	.	.
8c	.	8an	.	.	.	.	.	.
8AJ)	.	8fJ)	.	.	.	.	.	.
=51	=51	=51	=51	=51	=51	=51	=51	=51
(4f	.	(8ddL	.	(8dL	.	(8b-L	.	I6
.	.	8b-	.	8dd	.	8ff	.	.
[4B-)	.	8f	.	8b-	.	8dd	.	.
.	.	8dJ	.	8fJ	.	8b-J	.	.
!LO:TX:b:i:t=cresc.	!	!LO:TX:b:i:t=cresc.	!	!LO:TX:b:i:t=cresc.	!	!LO:TX:b:i:t=cresc.	!	!
(8B-L]	.	2g)	.	2dd-X)	.	2een	.	#ivo43
8d-X	.	.	.	.	.	.	.	.
8c	.	.	.	.	.	.	.	.
8B-J	.	.	.	.	.	.	.	.
=52	=52	=52	=52	=52	=52	=52	=52	=52
8AnL	.	2c	.	2cc	.	2ff	.	V6
8c	.	.	.	.	.	.	.	.
8B-	.	.	.	.	.	.	.	.
8AJ	.	.	.	.	.	.	.	.
8A-XL	.	[2cc	.	[2c	.	2ff#X)	.	vi.It6
8G)	.	.	.	.	.	.	.	.
8A-'	.	.	.	.	.	.	.	.
8A-'J	.	.	.	.	.	.	.	.
=53	=53	=53	=53	=53	=53	=53	=53	=53
(4A-	.	(4cc]	.	(4c]	.	(4ff#X	.	.
4G	.	4bn	.	4d	.	4gg	.	V
4C	.	4cc	.	4g	.	4ee-X	.	i
4E-)	.	4g)	.	4e-)	.	4cc)	.	V.ii6
=54	=54	=54	=54	=54	=54	=54	=54	=54
(4F	.	(4d	.	(4b-	.	(4dd	.	V(64)
4FF	.	4c	.	4an	.	4ee-	.	V7
4F)	.	4e-	.	4g-X	.	4cc	.	V7(b9)
4F	.	4c)	.	8fL	.	8anL	.	V7
.	.	.	.	8e-J)	.	8aanJ)	.	.
=55	=55	=55	=55	=55	=55	=55	=55	=55
4BB-'	f	4B-'	f	4d'	f	4bb-'	f	I\\
4e-'	.	4b-X'	.	4ggn'	.	4bb-'	.	IV
4dn'	.	4b-'	.	4ff'	.	4bb-'	.	I6
4c'	.	4cc'	.	4ee-'	.	4bb-'	.	ii7
=56	=56	=56	=56	=56	=56	=56	=56	=56
4B-'	.	4dd'	.	4dd'	.	(4bb-	.	I
4An'	.	4f'	.	4cc'	.	8cccL	.	V6
.	.	.	.	.	.	8dddJ	.	.
4G'	.	4b-'	.	4b-'	.	4eee-')	.	IV6
4F'	.	4B-'	.	4b-'	.	4ddd'	.	I64
=57	=57	=57	=57	=57	=57	=57	=57	=57
4E-'	f	4B-'	f	4b-'	f	4ggg'	f	IV
4D'	.	4Bn'	.	4bn'	.	4fff'	.	#viio6/ii
.	.	.	.	.	.	16qqfff/	f	ii
4C'	f	4c'	f	4cc'	f	4eee-'	.	.
4BB-'	.	(8dL	.	(8ddL	.	4ddd'	.	I
.	.	8enJ)	.	8eenJ)	.	.	.	.
=58	=58	=58	=58	=58	=58	=58	=58	=58
.	.	.	.	.	.	16qqddd/	f	V6
4AAn'	f	4f'	f	4ff'	f	4ccc'	.	.
4GG'	.	4g'	.	4gg'	.	4bb-'	.	@none
4FF'	f	4an'	f	4aan'	f	4ccc'	f	V
4e-'	.	(8b-L	.	(8ggL	.	4ff'	.	V2
.	.	8ccJ)	.	8aaJ)	.	.	.	.
=59	=59	=59	=59	=59	=59	=59	=59	=59
4d'	.	4b-'	.	4ff'	.	4bb-'	.	I6
4e-'	.	4g'	.	4gg'	.	4bb-'	.	IV
4d'	.	4f'	.	4ff'	.	4bb-'	.	I6
4c'	.	4e-X'	.	4ee-X'	.	4bb-'	.	ii7
=60	=60	=60	=60	=60	=60	=60	=60	=60
4B-'	.	4d'	.	4dd'	.	(4bb-	.	I
4An'	.	4c'	.	4cc'	.	8cccL	.	V6
.	.	.	.	.	.	8dddJ	.	.
4G'	.	4B-'	.	4b-'	.	4eee-'	.	IV6
4F'	.	4B-'	.	4b-'	.	4ddd')	.	I64
=61	=61	=61	=61	=61	=61	=61	=61	=61
4E-'	.	4B-'	.	4b-'	.	4ggg'	.	IV
4D'	.	4Bn'	.	4bn'	.	4fff'	.	#viio6/ii
.	.	.	.	.	.	16qqfff/	f	ii
4C'	f	4c'	f	4cc'	f	4eee-'	.	.
4BB-'	.	4d'	.	4dd'	.	4ddd'	.	I
=62	=62	=62	=62	=62	=62	=62	=62	=62
.	.	.	.	.	.	16qqddd/	f	V
4F'	.	4f'	.	4aan'	f	4ccc'	.	.
4r	.	4r	.	4gg'	.	4bb-'	.	.
.	.	.	.	.	.	16qqbb-/	f	.
2r	.	2r	.	4ff'	f	4aan'	.	.
.	.	.	.	4ee-'	.	4gg'	.	.
=63	=63	=63	=63	=63	=63	=63	=63	=63
.	.	.	.	.	.	16qqgg/	p	I6
4d'	.	4f'	p	4dd'	p	4ff'	.	.
4c'	.	4e-'	.	4cc'	.	4ee-'	.	ii
.	.	.	.	.	.	16qqee-/	.	I
4B-'	.	4d'	.	4b-X'	.	4dd'	.	.
4F'	.	4c'	.	4f'	.	4cc'	.	V
=64	=64	=64	=64	=64	=64	=64	=64	=64
.	.	.	.	.	.	16qqcc/	.	I6
4D	.	4B-X'	.	4d'	.	4b-'	.	.
4r	.	4r	.	4f'	.	4an'	.	.
.	.	.	.	.	.	16qqa/	.	.
4r	.	2r	.	4e-'	.	4g'	.	.
4BB-	.	.	.	4d'	.	4f'	.	I
=65	=65	=65	=65	=65	=65	=65	=65	=65
.	.	.	.	.	.	16qqaan/	f	IV64
4BB-	f	4e-	f f	4G	.	4gg	.	.
4BBn	.	4d	.	4g	.	4ff	.	V65/ii
.	.	.	.	.	.	16qqff/	f	ii
4C	f	4c	f	4g	f	4ee-	.	.
8DL	.	4B-	.	4b-	.	4dd	.	I6
8EnJ	.	.	.	.	.	.	.	.
=66	=66	=66	=66	=66	=66	=66	=66	=66
.	.	.	.	.	.	16qqdd/	f	V[V64
4F	f f	4c	.	4an	f	4cc	.	.
4F	.	4d-X	.	4en	.	4b-	.	#viio2/V
.	.	.	.	.	.	16qqb-/	f	iii2
4F	f	4c	f	4d	f	4an	.	.
4F	.	4d-	.	4B- 4e	.	4g	.	#vii%43/V]
=67	=67	=67	=67	=67	=67	=67	=67	=67
4D-X'	p	1r	.	1r	.	4d-X'	p	@none
4Dn'	.	.	.	.	.	4dn'	.	.
4BB-'	.	.	.	.	.	4B-'	.	.
4D'	.	.	.	.	.	4d'	.	.
=68	=68	=68	=68	=68	=68	=68	=68	=68
4E-'	.	2r	.	2r	.	4e-'	.	.
4En'	.	.	.	.	.	4en'	.	.
2G	f	4G'	f f	4G' 4g	.	2g'	f	.
.	.	4g'	.	4gg'	.	.	.	.
=69	=69	=69	=69	=69	=69	=69	=69	=69
4A-'	p	1r	.	1r	.	4a-X'	p	.
4An'	.	.	.	.	.	4an'	.	V
4F'	.	.	.	.	.	4f'	.	.
4A'	.	.	.	.	.	4a'	.	.
=70	=70	=70	=70	=70	=70	=70	=70	=70
4B-'	.	2r	.	2r	.	4b-'	.	I
4Bn'	.	.	.	.	.	4bn'	.	V/ii
!	!LO:DY:a	!	!LO:DY:a	!	!	!	!	!
2d	f f	4D'	f	4d'	.	2dd	f	.
.	.	4d'	.	4dd'	.	.	.	.
=71	=71	=71	=71	=71	=71	=71	=71	=71
4Bn'	p	2r	.	2r	.	4bn'	p	.
4c'	.	.	.	.	.	4cc'	.	ii
2e-	f f	4E-'	f	4e-'	.	2ee-	f	.
.	.	4e-'	.	4ee-'	.	.	.	.
=72	=72	=72	=72	=72	=72	=72	=72	=72
4c#X'	p	2r	.	2r	.	4cc#X'	p	V/iii
4d'	f	.	.	.	.	4dd'	.	iii
2f	f	4F'	.	4f'	f	2ff	f	.
.	.	4f'	.	4ff'	.	.	.	.
=73	=73	=73	=73	=73	=73	=73	=73	=73
4BBn'	ff	4d#X'	ff ff	4dd#X'	.	1b-X 1bb-X	ff	V7/V
4CC' 4C	.	4G' 4en	.	4een'	.	.	.	.
2CC 2C	.	2G 2e	.	2ee' 2gg	.	.	.	.
=74	=74	=74	=74	=74	=74	=74	=74	=74
4BBn'	.	4d#X'	.	4dd#X'	.	1b-X 1bb-X	.	V7/V
4CC' 4C	.	4G' 4en	.	4een'	.	.	.	.
2CC 2C	.	2G 2e	.	2ee' 2gg	.	.	.	.
=75	=75	=75	=75	=75	=75	=75	=75	=75
4BBn'	.	4d#X'	.	4dd#X'	.	1b-X 1bb-X	.	V7/V
4CC' 4C	.	4G' 4en	.	4een'	.	.	.	.
2CC 2C	.	2G 2e	.	2ee' 2gg	.	.	.	.
=76	=76	=76	=76	=76	=76	=76	=76	=76
(4DD	.	(4F	.	4ff	.	(4bb-	.	I6
4EE-	.	4G	.	(8ffL	.	8aanL	.	IV
.	.	.	.	8ee-XJ	.	8ggJ	.	.
4FF)	.	4B-)	.	4ddn')	.	4ff')	.	V(64)
(8AnL	.	(8cL	.	(8ccL	.	(8ee-L	.	viio
8B-J)	.	8dJ)	.	8b-J)	.	8ddJ)	.	I
=77	=77	=77	=77	=77	=77	=77	=77	=77
4CC' 4GG	ff ff	4C' 4G	.	4dd#X'	ff	4bb-'	ff	V7/V
4CC' 4GG	.	4C' 4G	.	4een'	.	(12cccL	.	.
.	.	.	.	.	.	12bb-	.	.
.	.	.	.	.	.	12aanJ)	.	.
2CC 2GG	.	2C 2G	.	2ee' 2gg	.	4bb-'	.	.
.	.	.	.	.	.	(12cccL	.	.
.	.	.	.	.	.	12bb-	.	.
.	.	.	.	.	.	12aaJ)	.	.
=78	=78	=78	=78	=78	=78	=78	=78	=78
4CC' 4GG	.	4C' 4G	.	4dd#X'	.	4bb-'	.	.
4CC' 4GG	.	4C' 4G	.	4een'	.	(12cccL	.	.
.	.	.	.	.	.	12bb-	.	.
.	.	.	.	.	.	12aanJ)	.	.
2CC 2GG	.	2C 2G	.	2ee' 2gg	.	4bb-'	.	.
.	.	.	.	.	.	(12cccL	.	.
.	.	.	.	.	.	12bb-	.	.
.	.	.	.	.	.	12aaJ)	.	.
=79	=79	=79	=79	=79	=79	=79	=79	=79
4CC' 4GG	.	4C' 4G	.	4dd#X'	.	4bb-'	.	.
4CC' 4GG	.	4C' 4G	.	4een'	.	(12cccL	.	.
.	.	.	.	.	.	12bb-	.	.
.	.	.	.	.	.	12aanJ)	.	.
2CC 2GG	.	2C 2G	.	2ee' 2gg	.	4bb-'	.	.
.	.	.	.	.	.	(12cccL	.	.
.	.	.	.	.	.	12bb-	.	.
.	.	.	.	.	.	12aaJ)	.	.
=80	=80	=80	=80	=80	=80	=80	=80	=80
(4DD	.	(4F	.	4b-	.	(4bb-	.	I6
4EE-	.	4G	.	(4b-	.	8aanL	.	IV
.	.	.	.	.	.	8ggJ	.	.
4FF)	.	4B-)	.	4ddn)	.	4ff')	.	V(64)
(8AnL	.	(8cL	.	(8ccL	.	(8ee-L	.	viio
8B-J)	.	8dJ)	.	8b-J)	.	8ddJ)	.	I
=81	=81	=81	=81	=81	=81	=81	=81	=81
(8BnL	f	(8dL	f	(8ddL	f	(8ffL	f	viio/ii
8c	.	8e-	.	8cc	.	8ee-	.	.
8d	.	8f	.	8bn	.	8dd	.	.
8cJ)	.	8e-J)	.	8ccJ)	.	8ee-J)	.	.
4c	.	4e-	.	4cc	.	4ee-	.	ii
4An	.	4c	.	4cc	.	4ee-	.	viio
=82	=82	=82	=82	=82	=82	=82	=82	=82
(8AnL	.	(8cL	.	(8ccL	.	(8ee-L	.	viio
8B-X	.	8d	.	8b-X	.	8dd	.	.
8c	.	8e-	.	8an	.	8cc	.	.
8B-J)	.	8dJ)	.	8b-J)	.	8ddJ)	.	.
4B-	.	4d	.	4b-	.	4dd	.	I
4G	p	4B-	p	4r	.	4r	.	@none
=83	=83	=83	=83	=83	=83	=83	=83	=83
(8FL	.	(8AnL	.	1r	.	1r	.	.
8E-	.	8G	.	.	.	.	.	.
8D	.	8F	.	.	.	.	.	.
8E-J)	.	8GJ)	.	.	.	.	.	.
4D'	.	4F'	.	.	.	.	.	.
4E-'	.	4G'	.	.	.	.	.	.
=84	=84	=84	=84	=84	=84	=84	=84	=84
(8DL	.	(8FL	.	2r	.	2r	.	.
8C	.	8E-	.	.	.	.	.	.
8BB-	.	8D	.	.	.	.	.	.
8CJ)	.	8E-J)	.	.	.	.	.	.
4BB-'	.	4D'	.	4r	.	4r	.	.
(8AnL	f	(8cL	f	(8ee-L	f	(8ggL	f	vii%7
8B-J)	.	8dJ)	.	8ddJ)	.	8ffJ)	.	I
=85	=85	=85	=85	=85	=85	=85	=85	=85
(8BnL	.	(8dL	.	(8ddL	.	(8ffL	.	viio/ii
8c	.	8e-	.	8cc	.	8ee-	.	.
8d	.	8f	.	8bn	.	8dd	.	.
8cJ)	.	8e-J)	.	8ccJ)	.	8ee-J)	.	.
4c	.	4e-	.	4cc	.	4ee-	.	ii
4An	.	4c	.	4cc	.	4ee-	.	viio
=86	=86	=86	=86	=86	=86	=86	=86	=86
(8AnL	.	(8cL	.	(8ccL	.	(8ee-L	.	viio
8B-X	.	8d	.	8b-X	.	8dd	.	.
8c	.	8e-	.	8an	.	8cc	.	.
8B-J)	.	8dJ)	.	8b-J)	.	8ddJ)	.	.
4B-	.	4d	.	4b-	.	4dd	.	I
*clefC4	*	*	*	*	*	*	*	*
(8a-XL	p	(8ccL	p	4r	.	4r	.	@none
8gJ)	.	8b-J)	.	.	.	.	.	.
=87	=87	=87	=87	=87	=87	=87	=87	=87
(8gL	.	(8b-L	.	1r	.	1r	.	.
8f	.	8a-X	.	.	.	.	.	.
8en	.	8g	.	.	.	.	.	.
8fJ)	.	8a-J)	.	.	.	.	.	.
4f	.	4a-	.	.	.	.	.	.
4f	.	4a-	.	.	.	.	.	.
=88	=88	=88	=88	=88	=88	=88	=88	=88
(8fL	.	(8a-L	.	2r	.	2r	.	.
8e-X	.	8g	.	.	.	.	.	.
8d	.	8f	.	.	.	.	.	.
8e-J)	.	8gJ)	.	.	.	.	.	.
4e-	.	4g	.	4r	.	4r	.	.
4r	.	4r	.	4ccc	p	4eee-	p	.
=89	=89	=89	=89	=89	=89	=89	=89	=89
1r	.	1r	.	(8bb-L	.	(8dddL	.	.
.	.	.	.	8aa-X	.	8ccc	.	.
.	.	.	.	8gg	.	8bb-	.	.
.	.	.	.	8aa-J)	.	8cccJ)	.	.
.	.	.	.	4gg	.	4bb-	.	.
.	.	.	.	4aa-	.	4ccc	.	.
=90	=90	=90	=90	=90	=90	=90	=90	=90
2r	.	2r	.	(8ggL	.	(8bb-L	.	.
.	.	.	.	8ff	.	8aa-X	.	.
.	.	.	.	8ee-	.	8gg	.	.
.	.	.	.	8ffJ)	.	8aa-J)	.	.
4r	.	4r	.	4ee-	.	4gg	.	I.I
4e-	p	4g	p	(8aa-L	p	(8cccL	p	.
.	.	.	.	8ggJ)	.	8bb-J)	.	.
=91	=91	=91	=91	=91	=91	=91	=91	=91
(8cL	.	(8e-L	.	(8ggL	.	(8bb-L	.	vi7
8dJ)	.	8fJ)	.	8ff	.	8aa-	.	viio
4r	.	4r	.	8een	.	8gg	.	.
.	.	.	.	8ffJ)	.	8aa-J)	.	.
2r	.	2r	.	4ff	.	4aa-	.	.
.	.	.	.	4ff	.	4aa-	.	.
=92	=92	=92	=92	=92	=92	=92	=92	=92
(8dL	.	(8fL	.	(8ffL	.	(8aa-L	.	.
8e-J)	.	8gJ)	.	8ee-X	.	8gg	.	I
4r	.	4r	.	8dd	.	8ff#X	.	.
.	.	.	.	8ee-J)	.	8ggJ)	.	.
2r	.	2r	.	4ee-	.	4gg	.	.
*clefF4	*	*	*	*	*	*	*	*
=93	=93	=93	=93	=93	=93	=93	=93	=93
4ryy	pp	4ryy	pp	(8ffL	pp	(8aa-L	pp	viio7/vi
.	.	.	.	8ee-X	.	8gg	.	I
4r	.	4r	.	8dd	.	8ff#X	.	.
.	.	.	.	8ee-J)	.	8ggJ)	.	.
2r	.	2r	.	4ee-	.	4gg	.	.
.	.	.	.	4ee-	.	4gg	.	.
=94	=94	=94	=94	=94	=94	=94	=94	=94
(8GL	.	(8BnL	.	(8ffL	.	(8aa-L	.	I+6
8BnJ)	.	8e-J)	.	8ee-X	.	8gg	.	.
4r	.	4r	.	8dd	.	8ff#X	.	.
.	.	.	.	8ee-J)	.	8ggJ)	.	.
2r	.	2r	.	4ee-	.	4gg	.	.
.	.	.	.	4ee-	.	4gg	.	.
=95	=95	=95	=95	=95	=95	=95	=95	=95
!LO:TX:b:i:t=cresc.	!	!LO:TX:b:i:t=cresc.	!	!LO:TX:b:i:t=cresc.	!	!LO:TX:b:i:t=cresc.	!	!
(8E-L	.	(8GL	.	(8ffL	.	(8aa-L	.	I+
8GJ)	.	8BnJ)	.	8ee-X	.	8gg	.	.
4r	.	4r	.	8dd	.	8ff#X	.	.
.	.	.	.	8ee-J)	.	8ggJ)	.	.
2r	.	2r	.	4ee-	.	4gg	.	.
.	.	.	.	4ee-	.	4gg	.	.
=96	=96	=96	=96	=96	=96	=96	=96	=96
(8BBnL	.	(8E-L	.	(8ffL	.	(8aa-L	.	I+64
8E-J)	.	8GJ)	.	8ee-X	.	8gg	.	.
4r	.	4r	.	8dd	.	8ff#X	.	.
.	.	.	.	8ee-J)	.	8ggJ)	.	.
(8CL	.	(8E-L	.	4ee-	.	4gg	.	vi
8E-J)	.	8GJ)	.	.	.	.	.	.
4r	.	4r	f	4ee-	f	4gg	f	.
=97	=97	=97	=97	=97	=97	=97	=97	=97
4GG'	f	4G' 4g	.	4G' 4g	.	4G' 4g	.	@none
4G'	.	4g'	.	4g'	.	4gg'	.	.
[2A-	sf	[2a-	sf	[2a-	sf	[2aa-	sf	.
=98	=98	=98	=98	=98	=98	=98	=98	=98
(4A-]	p	(4a-]	p	(4a-]	p	(4aa-]	p	.
4F	.	4f	.	4f	.	4ffn	.	.
4D	.	4d	.	4d	.	4dd	.	.
4E-	.	4e-	.	4e-	.	4ee-	.	.
=99	=99	=99	=99	=99	=99	=99	=99	=99
4BBn	.	4Bn	.	4Bn	.	4bn	.	.
4C	.	4c	.	4c	.	4cc	.	.
4AAn	.	4An	.	4An	.	4an	.	.
4BB-X	.	4B-X	.	4B-X	.	4b-X	.	.
=100	=100	=100	=100	=100	=100	=100	=100	=100
4GG	.	4G	.	4G	.	4g	.	.
4AA-X	.	4A-X	.	4A-X	.	4a-X	.	.
!LO:TX:b:i:t=sempre p	!	!LO:TX:b:i:t=sempre p	!	!LO:TX:b:i:t=sempre p	!	!LO:TX:b:i:t=sempre p	!	!
4FF	.	4F	.	4f	.	4f	.	.
4BB-	.	4B-	.	4b-	.	4b-	.	.
=101	=101	=101	=101	=101	=101	=101	=101	=101
4FF	.	4F	.	4f	.	4f	.	.
4GG	.	4G	.	4g	.	4g	.	.
[2EE-)	.	4E-	.	4e-)	.	4e-	.	I[I
.	.	4A-	.	4r	.	4ff	.	ii65
=102	=102	=102	=102	=102	=102	=102	=102	=102
2EE-]	.	4An	.	2r	.	4cc	.	V/V
.	.	4B-	.	.	.	4dd-X	.	v
[2E-	.	4G)	.	4r	.	4b-	.	I6
.	.	4r	.	4g	.	4ee-	.	.
=103	=103	=103	=103	=103	=103	=103	=103	=103
1E-_	.	2r	.	(4g	.	4bn	.	I+6
.	.	.	.	4a-	.	4cc	.	IV
.	.	4r	.	4c	.	4a-	.	IV6
.	.	(4B-	.	4g)	.	4dd-X	.	viio6/IV
=104	=104	=104	=104	=104	=104	=104	=104	=104
2E-]	.	2.g	.	2d-X	.	4an	.	viio2/IV]
.	.	.	.	.	.	4b-X	.	.
2En	.	.	.	[2c	.	4g	.	V6/ii
.	.	4G	.	.	.	4cc	.	.
=105	=105	=105	=105	=105	=105	=105	=105	=105
2.F	.	4B-	.	2.c]	.	4g	.	ii
.	.	4c	.	.	.	4a-X	.	.
.	.	4A-X)	.	.	.	4f)	.	.
4F	.	(4dd-X	.	[4ff	.	4aa-	.	.bVII6
=106	=106	=106	=106	=106	=106	=106	=106	=106
4c'	.	4bn	.	(4ff]	.	(4aa-	.	VI.I(764)
4c'	.	4cc)	.	4een)	.	4gg)	.	I
4c'	.	4cc'	.	4ee'	.	4gg'	.	.
4c'	.	4cc'	.	4ee'	.	4gg'	.	.
=107	=107	=107	=107	=107	=107	=107	=107	=107
4g'	pp	4cc'	pp	4een'	pp	4gg'	pp	V[I
4g'	.	4cc'	.	4ee' 4gg	.	4ccc'	.	.
4g'	.	4cc'	.	4ee' 4gg	.	4ccc'	.	.
4g'	.	4cc'	.	4ee' 4gg	.	4ccc'	.	.
=108	=108	=108	=108	=108	=108	=108	=108	=108
4g'	.	4cc'	.	4een' 4gg	.	(4ccc	.	.
4g'	.	4cc'	.	4ee' 4gg	.	8dddL	.	.
.	.	.	.	.	.	8eeenJ)	.	.
4g'	.	4cc'	.	4ddn' 4gg	.	4fff'	.	V7
4g'	.	4cc'	.	4cc' 4gg	.	4eee'	.	I
=109	=109	=109	=109	=109	=109	=109	=109	=109
4g'	.	4cc'	.	4ff'	.	4aaan'	.	IV64
4g'	.	4cc'	.	4een'	.	4ggg'	.	I
4g'	.	4ddn'	.	4bbn'	.	4fff'	.	viio6
4g'	.	4cc'	.	4ccc'	.	4eeen'	.	I
=110	=110	=110	=110	=110	=110	=110	=110	=110
4g'	.	4dd'	.	4bbn'	.	4ddd'	.	V64
4g'	.	4an'	.	4gg'	.	4ccc'	.	@none
4g'	.	4bn'	.	4gg'	.	4ddd'	.	V6
4g'	f	4dd'	.	4gg'	.	4gg'	.	V64]
=111	=111	=111	=111	=111	=111	=111	=111	=111
4CC	f	4C	.	4g 4ee-X	f	4gg	f	vi.i
4CC	.	4C	.	4g	.	4gg	.	.
4CC	.	4C	.	4f	f	4ff	f	.
4CC	.	4C	.	4e-X	.	4ee-X	.	.
=112	=112	=112	=112	=112	=112	=112	=112	=112
(4CC	.	(4C	.	4d	f	4dd	f	i(9)
8DDL	.	8DL	.	4c	.	4cc	.	i6
8EE-XJ)	.	8E-XJ)	.	.	.	.	.	.
4FF'	.	4F'	.	4Bn	f	4bn	f	V2
4EE-'	.	4E-'	.	4c	.	4cc	.	i6
=113	=113	=113	=113	=113	=113	=113	=113	=113
4AA-X'	.	4A-X'	.	4c	.	4cc	.	iv6
4GG'	.	4G'	.	4cc	.	4ccc	.	i64
4FF'	f	4F'	f	4cc	.	4ccc	.	iv
4EE-'	.	4E-'	.	4cc	.	4ccc	.	i6
=114	=114	=114	=114	=114	=114	=114	=114	=114
4DD'	f f	4D'	.	(4cc	.	(4ccc	.	@none
4CC'	.	4C'	.	8ddL	.	8dddL	.	i
.	.	.	.	8ee-XJ)	.	8eee-XJ)	.	.
4BBn	f	4D	f	4ff'	.	4fff'	.	viio
4C	.	4E-	.	4ee-'	.	4eee-'	.	i
=115	=115	=115	=115	=115	=115	=115	=115	=115
4GG	.	4G	.	4ee-'	.	4eee-'	.	V(6)
4G	.	4g	.	4dd'	.	4ddd'	.	V
.	.	.	.	16qqdd/	f	16qqddd/	f	V(4)
4GG	.	4G	.	4cc	.	4ccc	.	.
4GG	.	4G	.	4bn	.	4bbn	.	V
=116	=116	=116	=116	=116	=116	=116	=116	=116
.	.	.	.	16qqbn/	f	16qqbbn/	f	V(9)
(4GG	.	(4G	.	4an	.	4aan	.	.
8AAnL	.	8AnL	.	4g	.	4gg	.	V6
8BBnJ)	.	8BnJ)	.	.	.	.	.	.
4C'	.	4c'	.	4f#X	.	4ff#X	.	V2/V
4BB'	ff	4B'	ff	4g	ff	4gg	ff	V6
=117	=117	=117	=117	=117	=117	=117	=117	=117
4E-'	.	4e-'	.	4g'	.	4gg'	.	i6
4D'	.	4d'	.	4g'	.	4gg'	.	V64
16qqD/	f	16qqd/	f	.	.	.	.	.
4C'	.	4c	.	4g'	.	4gg'	.	i
4BBn'	.	4Bn	.	4g'	.	4gg'	.	V6
=118	=118	=118	=118	=118	=118	=118	=118	=118
16qqBBn/	f	16qqBn/	f	.	.	.	.	.
4AAn	.	4An	.	(4g	.	(4gg	.	@none
4GG	.	4G	.	8anL	.	8aanL	.	V
.	.	.	.	8bnJ)	.	8bbnJ)	.	.
4FF#X	f	4F#X	f	4cc'	.	4ccc'	.	#viio/V
4GG	.	4G	.	4b'	.	4bb'	.	V
=119	=119	=119	=119	=119	=119	=119	=119	=119
4E-	.	4e-	.	(4bn	.	(4bbn	.	@none
4D	.	4d	.	8ccL	.	8cccL	.	.
.	.	.	.	8ddJ)	.	8dddJ)	.	.
16qqD/	f	16qqd/	f	.	.	.	.	.
4C	.	4c	.	4ee-'	.	4eee-'	.	i
4BBn	.	4Bn	.	4dd'	.	4ddd'	.	V6
=120	=120	=120	=120	=120	=120	=120	=120	=120
4AA-X	f	4A-X	f	(4dd	.	(4ddd	.	ii%43
4GG	.	4G	.	8ee-L	.	8eee-L	.	i64
.	.	.	.	8ffJ)	.	8fffJ)	.	.
4FFn	f	4Fn	f	4gg'	.	4ggg'	.	V2
4DD	.	4D	.	4Bn'	.	4bn'	.	V43
=121	=121	=121	=121	=121	=121	=121	=121	=121
1r	.	(2e-	pp	4cc'	pp	(8ccL	pp	i6
.	.	.	.	.	.	8gg	.	.
.	.	.	.	4cc'	.	8ee-	.	.
.	.	.	.	.	.	8ccJ	.	.
.	.	2f	.	4cc'	.	2aa-X)	.	iv
.	.	.	.	4cc'	.	.	.	.
=122	=122	=122	=122	=122	=122	=122	=122	=122
1r	.	2e-	.	(4cc	.	(8ccL	.	i6
.	.	.	.	.	.	8gg	.	.
.	.	.	.	8ddL	.	8ee-	.	.
.	.	.	.	8ee-J)	.	8ccJ	.	.
.	.	2c)	.	4ff'	.	2gg)	.	i
.	.	.	.	4ee-'	.	.	.	.
=123	=123	=123	=123	=123	=123	=123	=123	=123
4G	pp	(8gL	.	(2bn	.	1r	.	i64
.	.	8dd	.	.	.	.	.	.
4G	.	8bn	.	.	.	.	.	.
.	.	8gJ	.	.	.	.	.	.
4G	.	2ee-)	.	2cc	.	.	.	.
4G	.	.	.	.	.	.	.	.
=124	=124	=124	=124	=124	=124	=124	=124	=124
(4G	.	(8gL	.	2bn	.	4gg	pp	V
.	.	8dd	.	.	.	.	.	.
8AnL	.	8bn	.	.	.	4gg	.	.
8BnJ)	.	8gJ	.	.	.	.	.	.
4c'	.	2dd)	.	2g)	.	4gg	.	V6(2)
4B'	.	.	.	.	.	4gg	.	V6
=125	=125	=125	=125	=125	=125	=125	=125	=125
!LO:TX:b:i:t=cresc.	!	!LO:TX:b:i:t=cresc.	!	!LO:TX:b:i:t=cresc.	!	!LO:TX:b:i:t=cresc.	!	!
(2BB-X	.	4een	.	(8cL	.	4ccc	.	V2/iv
.	.	.	.	8g	.	.	.	.
.	.	4g 4cc	.	8en	.	4ccc	.	.
.	.	.	.	8cJ	.	.	.	.
2C	.	4f 4cc	.	2a-)	.	4ccc	.	iv64
.	.	4f 4cc	.	.	.	4ccc	.	.
=126	=126	=126	=126	=126	=126	=126	=126	=126
2BB-	.	4en 4cc	.	(8cL	.	(4ccc	.	V2/iv
.	.	.	.	8g	.	.	.	.
.	.	4C 4c	.	8en	.	8dddL	.	.
.	.	.	.	8cJ	.	8eeenJ)	.	.
2GG)	.	4C 4c	.	2g) 2b-X	.	4fff'	.	ii.V43(4)
.	.	4C 4c	.	.	.	4eee'	.	V43
=127	=127	=127	=127	=127	=127	=127	=127	=127
(8FFL	f f	4C 4c	.	4a-'	f	4fff'	f	i
8C	.	.	.	.	.	.	.	.
8AA-	.	4C 4c	.	4cc' 4ff	.	4fff'	.	.
8FFJ)	.	.	.	.	.	.	.	.
!	!LO:DY:a	!	!	!	!	!	!	!
[2BB-	f f > ]]	(8CL	>	4cc' 4een	f >	4ggg'	f >	V2
.	.	8G	.	.	.	.	.	.
.	.	8En	.	4cc' 4ee	]]	4ggg'	]]	.
.	.	8CJ)	]]	.	.	.	.	.
=128	=128	=128	=128	=128	=128	=128	=128	=128
1BB-_	p p	(8EnL	.	4cc' 4een	p	4ggg'	p	.
.	.	8c	.	.	.	.	.	.
.	.	8G	.	4cc' 4ee	.	4ggg'	.	.
.	.	8EJ	.	.	.	.	.	.
.	.	8GL	.	4cc' 4ee	.	4ggg'	.	.
.	.	8en	.	.	.	.	.	.
.	.	8c	.	4cc' 4ee	.	4ggg'	.	.
.	.	8GJ)	.	.	.	.	.	.
=129	=129	=129	=129	=129	=129	=129	=129	=129
1BB-_	.	(8cL	.	4cc' 4een	.	(8enL	.	.
.	.	8g	.	.	.	8cc	.	.
.	.	8en	.	4cc' 4ee	.	8g	.	.
.	.	8cJ	.	.	.	8eJ	.	.
.	.	8eL	.	4cc' 4ee	.	8gL	.	.
.	.	8cc	.	.	.	8een	.	.
.	.	8g	.	4cc' 4ee	.	8cc	.	.
.	.	8eJ	.	.	.	8gJ	.	.
=130	=130	=130	=130	=130	=130	=130	=130	=130
1BB-]	.	8gL	.	4cc' 4een	.	8ccL	.	.
.	.	8een	.	.	.	8gg	.	.
.	.	8cc	.	4cc' 4ee	.	8een	.	.
.	.	8gJ	.	.	.	8ccJ	.	.
.	.	8enL	.	4cc' 4ee	.	8eeL	.	.
.	.	8c	.	.	.	8ggg	.	.
.	.	8G	.	4cc' 4ee	.	8eeen	.	.
.	.	8EnJ)	.	.	.	8cccJ)	.	.
=131	=131	=131	=131	=131	=131	=131	=131	=131
(8FFL	f f	4C 4An	f	4cc' 4ff	.	4fff'	f	II.I
8C	.	.	.	.	.	.	.	.
8AAn	.	4C 4c	.	4cc' 4ff	.	4fff'	.	.
8FFJ)	.	.	.	.	.	.	.	.
!	!LO:DY:a	!	!	!	!	!	!	!
[2BB-	f f > ]]	(8CL	>	4cc' 4een	f >	4ggg'	f >	V2
.	.	8G	.	.	.	.	.	.
.	.	8En	.	4cc' 4ee	]]	4ggg'	]]	.
.	.	8CJ)	]]	.	.	.	.	.
=132	=132	=132	=132	=132	=132	=132	=132	=132
1BB-_	p p	(8EnL	.	4cc' 4een	p	4ggg'	p	.
.	.	8c	.	.	.	.	.	.
.	.	8G	.	4cc' 4ee	.	4ggg'	.	.
.	.	8EJ	.	.	.	.	.	.
.	.	8GL	.	4cc' 4ee	.	4ggg'	.	.
.	.	8en	.	.	.	.	.	.
.	.	8c	.	4cc' 4ee	.	4ggg'	.	.
.	.	8GJ)	.	.	.	.	.	.
=133	=133	=133	=133	=133	=133	=133	=133	=133
1BB-_	.	(8cL	.	4cc' 4een	.	(8enL	.	.
.	.	8g	.	.	.	8cc	.	.
.	.	8en	.	4cc' 4ee	.	8g	.	.
.	.	8cJ	.	.	.	8eJ	.	.
.	.	8eL	.	4cc' 4ee	.	8gL	.	.
.	.	8cc	.	.	.	8een	.	.
.	.	8g	.	4cc' 4ee	.	8cc	.	.
.	.	8eJ)	.	.	.	8gJ	.	.
=134	=134	=134	=134	=134	=134	=134	=134	=134
1BB-]	.	(8gL	.	4cc' 4een	.	8ccL	.	.
.	.	8een	.	.	.	8gg	.	.
.	.	8cc	.	4cc' 4ee	.	8een	.	.
.	.	8gJ	.	.	.	8ccJ	.	.
.	.	8enL	.	4cc' 4ee	.	8eeL	.	.
.	.	8c	.	.	.	8ggg	.	.
.	.	8G	.	4cc' 4ee	.	8eeen	.	.
.	.	8EnJ	.	.	.	8cccJ)	.	.
=135	=135	=135	=135	=135	=135	=135	=135	=135
!LO:TX:a:i:t=sempre p	!	!	!	!	!	!	!	!
!LO:TX:b:i:t=sempre p	!	!	!	!LO:TX:b:i:t=sempre p	!	!LO:TX:b:i:t=sempre p	!	!
(4AAn	.	4C)	.	(8ee-XL	.	(2ccc	.	I.V65/V
.	.	.	.	8ccc	.	.	.	.
4An	.	(4c	.	8ff	.	.	.	.
.	.	.	.	8ee-J	.	.	.	.
2B-)	.	4dn	.	2ddn)	.	8ddnL	.	V
.	.	.	.	.	.	8bb-	.	.
.	.	4f	.	.	.	8ff	.	.
.	.	.	.	.	.	8ddJ)	.	.
=136	=136	=136	=136	=136	=136	=136	=136	=136
(2G	.	4b-)	.	(8dd-XL	.	(2bb-	.	V65/IV
.	.	.	.	8bb-	.	.	.	.
.	.	(4B-	.	8ee-	.	.	.	.
.	.	.	.	8dd-J)	.	.	.	.
2A-X	.	4c	.	(2cc	.	8ccL	.	IV
.	.	.	.	.	.	8aa-	.	.
.	.	4e-	.	.	.	8ee-X	.	.
.	.	.	.	.	.	8ccJ)	.	.
=137	=137	=137	=137	=137	=137	=137	=137	=137
2F	.	4a-)	.	(8ccL)	.	(2aa-	.	ii
.	.	.	.	8aa-	.	.	.	.
.	.	(4A-	.	8dd-X	.	.	.	.
.	.	.	.	8ccJ)	.	.	.	.
2G)	.	4B-	.	[2b-	.	8b-L	.	iiio
.	.	.	.	.	.	8gg	.	.
.	.	4d-X	.	.	.	8dd-X	.	.
.	.	.	.	.	.	8b-J)	.	.
=138	=138	=138	=138	=138	=138	=138	=138	=138
!LO:TX:b:i:t=cresc.	!	!	!	!	!	!	!	!
(2En	.	4g)	.	(4b-]	.	(8bb-L	.	V65/ii
.	.	.	.	.	.	8gg	.	.
!	!	!LO:TX:b:i:t=cresc.	!	!LO:TX:b:i:t=cresc.	!	!LO:TX:b:i:t=cresc.	!	!
.	.	(4G	.	[4cc)	.	8cc	.	.
.	.	.	.	.	.	8bb-J	.	.
2F	.	4A-	.	(8ccL]	.	[2aa-)	.	ii
.	.	.	.	8aa-	.	.	.	.
.	.	4a-	.	8ff	.	.	.	.
.	.	.	.	8ccJ)	.	.	.	.
=139	=139	=139	=139	=139	=139	=139	=139	=139
2Dn	.	4f)	.	[2b-	.	(8aa-L]	.	V65
.	.	.	.	.	.	8ff	.	.
.	.	(4F	.	.	.	8b-	.	.
.	.	.	.	.	.	8aa-J	.	.
2E-X	.	4G	.	(8b-L]	.	[2gg)	.	I
.	.	.	.	8gg	.	.	.	.
.	.	4g	.	8ee-	.	.	.	.
.	.	.	.	8b-J)	.	.	.	.
=140	=140	=140	=140	=140	=140	=140	=140	=140
2C	.	4c)	.	[2a-	.	(8ggL]	.	IV.V+65/IV
.	.	.	.	.	.	8een	.	.
.	.	(4C	.	.	.	8a-X	.	.
.	.	.	.	.	.	8ggJ	.	.
2D-X)	.	4F	.	(8a-L]	.	2ff)	.	IV
.	.	.	.	8ff	.	.	.	.
.	.	4f	.	8dd-X	.	.	.	.
.	.	.	.	8a-J)	.	.	.	.
=141	=141	=141	=141	=141	=141	=141	=141	=141
!LO:TX:b:i:t=dim.	!	!LO:TX:b:i:t=dim.	!	!LO:TX:b:i:t=dim.	!	!LO:TX:b:i:t=dim.	!	!
(2E-	.	4c)	.	(2a-	.	(8ee-XL	.	V[I6
.	.	.	.	.	.	8cc	.	.
.	.	(4cc	.	.	.	8a-	.	.
.	.	.	.	.	.	8ee-J	.	.
[2E-)	.	4cc-X	.	8fL	.	2ddn)	.	#viio2/V
.	.	.	.	8cc-X	.	.	.	.
.	.	4c-X	.	8a-	.	.	.	.
.	.	.	.	8fJ)	.	.	.	.
=142	=142	=142	=142	=142	=142	=142	=142	=142
1E-_	.	4B-	.	(2g	.	(8dd-XL	.	viio65
.	.	.	.	.	.	8b-	.	.
.	.	4b-	.	.	.	8f-X	.	.
.	.	.	.	.	.	8dd-J	.	.
.	.	4a-	.	8e-L	.	2cc)	.	IV
.	.	.	.	8ccn	.	.	.	.
.	.	4A-	.	8a-	.	.	.	.
.	.	.	.	8e-J)	.	.	.	.
=143	=143	=143	=143	=143	=143	=143	=143	=143
1E-_	.	4f	pp	(8dnL	.	2cc-X	pp	#viio7/V
.	.	.	.	8a-	pp	.	.	.
.	.	4a-	.	8f	.	.	.	.
.	.	.	.	8dJ	.	.	.	.
.	.	4g	.	8d-XL	.	[2b-t	.	viio7
.	.	.	.	8g	.	.	.	.
.	.	4G)	.	8f-X	.	.	.	.
.	.	.	.	8d-J	.	.	.	.
=144	=144	=144	=144	=144	=144	=144	=144	=144
1E-]	.	(4g	.	8f-XL	.	1b-]	.	.
.	.	.	.	8b-	.	.	.	.
.	.	2dd-X	.	8g	.	.	.	.
.	.	.	.	8f-J	.	.	.	.
.	.	.	.	8gL	.	.	.	.
.	.	.	.	8dd-X	.	.	.	.
.	.	8gL	.	8b-	.	.	.	.
.	.	8b-J)	.	8gJ)	.	.	.	.
=145	=145	=145	=145	=145	=145	=145	=145	=145
4A-	p	(8a-L	p	(8ccL	p	[1a-T	p	I(64)
.	.	8ee-	.	8aa-	.	.	.	.
4r	.	8cc	.	8ee-	.	.	.	.
.	.	8a-J	.	8ccJ	.	.	.	.
2r	.	2dd-X)	.	2ffn)	.	.	.	.
=146	=146	=146	=146	=146	=146	=146	=146	=146
1r	.	(8a-L	.	(8ccL	.	1a-_	.	I(64)
.	.	8ee-	.	8aa-	.	.	.	.
.	.	8cc	.	8ee-	.	.	.	.
.	.	8a-J	.	8ccJ	.	.	.	.
.	.	2dd-X)	.	2ff)	.	.	.	.
=147	=147	=147	=147	=147	=147	=147	=147	=147
1r	.	(8a-L	<	(8ccL	.	1a-_	<	#ivo6
.	.	8ee-	.	8aa-	.	.	.	.
.	.	8cc	.	8ee-	.	.	.	.
.	.	8a-J	.	8ccJ	.	.	.	.
.	.	2ddn)	[[	4ff)	.	.	.	.
.	.	.	.	[4f	<	.	.	.
=148	=148	=148	=148	=148	=148	=148	=148	=148
1r	.	4ee-	>	4f]	.	2a-]	.	vi7
.	.	4ff	.	2e-	[ >	.	.	.
.	.	4dd-X	.	.	.	(4g	[ >	V7
.	.	4b-	]]	8fL	.	8a-L	.	.
.	.	.	.	8gJ	]]	8b-J	]]	.
=149	=149	=149	=149	=149	=149	=149	=149	=149
1r	.	(4a-	.	(4e-	.	4cc	.	I64
.	.	4g	.	4b-	.	4dd-X	.	viio
.	.	4f	.	4a-	.	4ddn)	.	#viio6/V
.	.	4e-	.	4g)	.	[4ee-T	.	V
=150	=150	=150	=150	=150	=150	=150	=150	=150
1r	.	4f	.	(4a-	.	(2ee-]	.	V6
.	.	4g	.	4b-	.	.	.	.
.	.	4a-	.	4cc	.	(8ee-L)	.	I
.	.	.	.	.	.	8ffJ	.	.
.	.	4b-	.	4dd-X)	.	4gg)	.	viio6
=151	=151	=151	=151	=151	=151	=151	=151	=151
1r	.	4cc	.	(4ee-	.	(4aa-	.	I6
.	.	4ee-	.	4cc	.	4ee-	.	.
.	.	4dd-X	.	4b-	.	4gg	.	viio64
.	.	4cc)	.	4a-	.	4aa-)	.	I
=152	=152	=152	=152	=152	=152	=152	=152	=152
1r	.	(4cc	.	4e-	.	(4aa-	.	I64
.	.	4b-)	.	4ddn	.	4gg)	.	vii6
.	.	2b-	.	4ee-	.	2gg	.	V43
.	.	.	.	4dd-X)	.	.	.	.
=153	=153	=153	=153	=153	=153	=153	=153	=153
2r	.	(8a-L	.	(2cc	.	(2aa-	.	I
.	.	8ee-	.	.	.	.	.	.
.	.	8cc	.	.	.	.	.	.
.	.	8a-J	.	.	.	.	.	.
*clefG2	*	*	*	*	*	*	*	*
[2ee-	.	2dd-X)	.	2g	.	8ee-L	.	V7
.	.	.	.	.	.	8bb-	.	.
.	.	.	.	.	.	8gg	.	.
.	.	.	.	.	.	8ee-J)	.	.
=154	=154	=154	=154	=154	=154	=154	=154	=154
(8ee-L]	.	(8a-L	.	2cc	.	(2aa-	.	V(64)
8ccc	.	8ee-	.	.	.	.	.	.
8aa-	.	8cc	.	.	.	.	.	.
8ee-J)	.	8a-J	.	.	.	.	.	.
[2ee-	.	2dd-X)	.	2g	.	8ee-L	.	V7
.	.	.	.	.	.	8bb-	.	.
.	.	.	.	.	.	8gg	.	.
.	.	.	.	.	.	8ee-J)	.	.
=155	=155	=155	=155	=155	=155	=155	=155	=155
(8ee-L]	<	(8a-L	<	2cc	<	[2aa-	<	V(64)
8ccc	.	8ee-	.	.	.	.	.	.
8aa-	.	8cc	.	.	.	.	.	.
8ee-J)	.	8a-J	.	.	.	.	.	.
[2ee-	[[	2ddn)	[[	2f)	[[	(8aa-L]	.	V[viio6/V
.	.	.	.	.	.	8ccc	.	.
.	.	.	.	.	.	8bb-	.	.
.	.	.	.	.	.	8aa-J)	[[	.
=156	=156	=156	=156	=156	=156	=156	=156	=156
4ee-]	>	(4ee-	>	(4g	>	(4gg	>	V]
4r	.	4ff	.	2e-	.	4aa-	.	V7(119)
(4gg	]	4dd-X	]	.	.	4ff	]	.
8aa-L	.	4b-)	.	8fL	]	4ddd-X	.	viio
8bb-J	.	.	.	8gJ	.	.	.	.
=157	=157	=157	=157	=157	=157	=157	=157	=157
4ccc	.	(4a-	.	4a-	.	4ccc	.	I
4ddd-X	.	4g	.	4b-	.	4bb-	.	viio
4eee-)	.	4f	.	4cc	.	4aa-	.	vi7
4eee-	.	4e-	.	4dd-X	.	4gg)	.	V7
=158	=158	=158	=158	=158	=158	=158	=158	=158
[1eee-	.	4f	.	4cc)	.	(4aa-	.	vi7
*	*	*	*	*^	*	*	*	*
.	.	4g	.	([2.e-	4B-	.	4bb-	.	V64
.	.	4a-	.	.	4A-	.	4ccc	.	I
.	.	4b-	.	.	4G	.	4ddd-X	.	V65
=159	=159	=159	=159	=159	=159	=159	=159	=159	=159
(4eee-]	.	4cc	.	4e-]	4A-	.	4ccc	.	I
*	*	*	*	*v	*v	*	*	*	*
4ccc	.	4ee-	.	4f	.	4aan	.	V7/ii
4bb-	.	4dd-X	.	4f-X	.	4bb-	.	.biio64
4ddd-X)	.	4b-)	.	4e-)	.	4gg)	.	V7
=160	=160	=160	=160	=160	=160	=160	=160	=160
(4ddd-X	.	(4b-	.	(4e-	.	(4gg	.	.
4ccc)	.	4a-)	.	4a-)	.	4aa-X)	.	I
4ccc	.	4a-	.	4a-	.	4aa-	.	I\\
*clefC4	*	*	*	*	*	*	*	*
(4e-	.	4r	.	4r	.	4r	.	.
=161	=161	=161	=161	=161	=161	=161	=161	=161
4a-	<	1r	.	1r	.	1r	.	I
4g	.	.	.	.	.	.	.	.
4a-	.	.	.	.	.	.	.	.
4cc	[[	.	.	.	.	.	.	.
=162	=162	=162	=162	=162	=162	=162	=162	=162
4e-	>	2r	.	1r	.	1r	.	I6
4d-X	.	.	.	.	.	.	.	.
4c)	.	4r	.	.	.	.	.	.
4a-	] p	4c	p	.	.	.	.	.
=163	=163	=163	=163	=163	=163	=163	=163	=163
!LO:TX:b:i:t=cresc.	!	!LO:TX:b:i:t=cresc.	!	!	!	!	!	!
(4a-	.	(4c	.	2r	.	1r	.	V6
4g)	.	4B-)	.	.	.	.	.	.
(8gL	.	(8B-L	.	4r	.	.	.	.
8f	.	8A-	.	.	.	.	.	.
8e-	.	8G	.	(4B-	.	.	.	.
8dJ)	.	8FJ)	.	.	.	.	.	.
=164	=164	=164	=164	=164	=164	=164	=164	=164
4f	.	(4E-	.	4A-	.	2r	.	V(94)
4e-	.	4B-	.	4G)	.	.	.	.
4e-	.	4E-)	.	4G	.	4r	.	V
(4e-	<	4r	.	4r	.	(4ee-	<	.
=165	=165	=165	=165	=165	=165	=165	=165	=165
4a-	.	2r	.	2r	.	4aa-	.	I
4g	.	.	.	.	.	4gg	.	.
4a-	.	4r	.	4r	.	4aa-	.	.
4cc	[[	((4E-	<	(4a-	<	4ccc	[[	I64
=166	=166	=166	=166	=166	=166	=166	=166	=166
4e-	>	4E-)	.	4c	.	4ee-	>	.
4d-X)	.	4En	[ >	4B-	[ >	4dd-X)	.	#viio7/vi
4c	]	4F)	.	4A-)	.	4cc	]	vi
4a-	p	4C	] p	4en	] p	4aa-	p	IV+6
=167	=167	=167	=167	=167	=167	=167	=167	=167
!	!	!LO:TX:b:i:t=cresc.	!	!	!	!	!	!
!LO:TX:b:i:t=cresc.	!	!LO:TX:a:i:t=cresc.	!	!	!	!LO:TX:b:i:t=cresc.	!	!
(4a-	.	2.D-X	.	(4f	.	(4aa-	.	IV
4g)	.	.	.	4e-X)	.	4gg)	.	V2
(8gL	.	.	.	(8e-L	.	(8ggL	.	.
8f	.	.	.	8d-X	.	8ff	.	.
8e-	.	4d-X	.	8c	.	8ee-	.	.
8d-XJ)	.	.	.	8B-J)	.	8dd-XJ)	.	.
=168	=168	=168	=168	=168	=168	=168	=168	=168
(4c	.	4e-	.	(4A-	.	(4cc	.	I
8d-XL	.	2E-	.	4G	.	8dd-XL	.	V7
8B-J	.	.	.	.	.	8b-J	.	.
4A-)	.	.	.	4c)	.	4a-)	.	I\\
*clefF4	*	*	*	*	*	*	*	*
(8D-XL	.	(8E-L	.	(8b-L	.	(4ee-	.	V43
8BB-J)	.	8D-XJ)	.	8gJ	.	.	.	.
=169	=169	=169	=169	=169	=169	=169	=169	=169
(2AA-	.	(2C	.	4a-	.	4aa-	.	I
.	.	.	.	4g	.	4gg	.	.
[2CC)	.	[2C)	.	4a-	.	4aa-	.	I6
.	.	.	.	4cc	.	4ccc	.	.
=170	=170	=170	=170	=170	=170	=170	=170	=170
(4CC]	.	(4C]	.	4c	.	4ee-	.	.
4DD-X	.	4D-X	.	4B-	.	4dd-X	.	V43
4EE-	.	4E-	.	4A-	.	4cc)	.	I64
4EEn	.	4En	.	8GL)	.	4ccc	.	I.V6/ii
.	.	.	.	(8ggJ	.	.	.	.
=171	=171	=171	=171	=171	=171	=171	=171	=171
4FF	.	4F	.	(4aa-)	.	(4ccc	.	ii
4GG	.	4G	.	8ggL	.	8bb-L	.	iii
.	.	.	.	8ffJ)	.	8aa-J)	.	.
4AA-	.	4A-	.	(8ffL	.	(8aa-L	.	ii6
.	.	.	.	8ee-)	.	8gg)	.	.
4BB-)	.	4B-	.	(8ee-	.	(8gg	.	V
.	.	.	.	8ddnJ)	.	8ffJ)	.	.
=172	=172	=172	=172	=172	=172	=172	=172	=172
(4EE-X	.	4E-X	.	(4ff	.	(4aa-	.	I(94)
4Dn	.	4dn	.	4ee-)	.	4gg)	.	I(+#7)
4E-	.	4e-	.	4ee-	.	4gg	.	I\\
4D-X	.	4d-X	.	(8gL	.	(4ee-	.	IV.V2
.	.	.	.	8GJ	.	.	.	.
=173	=173	=173	=173	=173	=173	=173	=173	=173
4C	.	4c	.	4e-	.	4aa-	.	I6
4BB-	.	4B-	.	4d-X	.	4gg	.	viio6
4AA-	.	4A-	.	4c	.	4aa-	.	I
4EE-	.	4E-	.	4a-	.	4ccc	.	I64
=174	=174	=174	=174	=174	=174	=174	=174	=174
4FF	.	4F	.	4cc	.	4ee-	.	ii7
4GG	.	4G	.	4b-	.	4dd-X	.	viio
4AA-)	.	4A-)	.	4a-)	.	4cc)	.	I
!	!LO:DY:a	!	!	!	!	!	!	!
[4CC	f f	[4C	.	4een	f	4aa-	f	ii64
=175	=175	=175	=175	=175	=175	=175	=175	=175
4CC]	.	4C]	.	(4ff	.	(4aa-	.	.
2DD-X	.	2D-X	.	4ee-X)	.	4gg)	.	V2
.	.	.	.	(8ee-L	.	(8ggL	.	.
.	.	.	.	8dd-X	.	8ff	.	.
4EE-	.	4E-	.	8cc	.	8ee-	.	V7
.	.	.	.	8b-J	.	8dd-XJ)	.	.
=176	=176	=176	=176	=176	=176	=176	=176	=176
4EE-	>	(4E-	>	4a-	>	(4cc	>	V(64)
2E-	]	8b-L	.	8gL	.	8dd-XL	.	V7
.	.	8gJ	.	8d-XJ	.	8b-J	.	.
.	.	4d-X)	]	4B-)	]	4g)	]	.
(4e-	p	(4b-	p	(4g	p	(4dd-	p	.
=177	=177	=177	=177	=177	=177	=177	=177	=177
4c)	.	4a-)	.	4e-)	.	4ff	.	I6(13)
(2.c	.	4r	.	2e-	.	8ee-L	.	I6
.	.	.	.	.	.	8ccJ	.	.
.	.	2r	.	.	.	4a-')	.	.
.	.	.	.	(4en	.	(4een	.	I+6
=178	=178	=178	=178	=178	=178	=178	=178	=178
!LO:TX:b:i:t=cresc.	!	!	!	!LO:TX:b:i:t=cresc.	!	!LO:TX:b:i:t=cresc.	!	!
4d-X)	.	1r	.	4f)	.	4gg	.	IV(11)
(2d-	.	.	.	(2f	.	8ffL	.	ii6
.	.	.	.	.	.	8dd-XJ	.	.
.	.	.	.	.	.	4b-')	.	.
[4en)	.	.	.	[4g)	.	(4gg	.	V6/vi
=179	=179	=179	=179	=179	=179	=179	=179	=179
4e]	.	1r	.	4g]	.	4aa-	.	.
[2.en	.	.	.	[2.g	.	8ggL	.	.
.	.	.	.	.	.	8eenJ	.	.
.	.	.	.	.	.	4cc')	.	.
.	.	.	.	.	.	(4gg	.	.
=180	=180	=180	=180	=180	=180	=180	=180	=180
(4e]	.	1r	.	(4g]	.	4bb-	.	.
[2.f)	.	.	.	[2.an)	.	8aanL	.	V7/ii
.	.	.	.	.	.	8ee-J	.	.
.	.	.	.	.	.	4cc')	.	.
.	.	.	.	.	.	(4aa	.	.
=181	=181	=181	=181	=181	=181	=181	=181	=181
!LO:TX:b:i:t=dim.	!	!	!	!LO:TX:b:i:t=dim.	!	!LO:TX:b:i:t=dim.	!	!
4f]	.	1r	.	4a]	.	4ccc	.	.
[2.g	.	.	.	[2.bn	.	8bbnL	.	V7/iii
.	.	.	.	.	.	8ffJ	.	.
.	.	.	.	.	.	4ddn')	.	.
.	.	.	.	.	.	(4bb	.	.
=182	=182	=182	=182	=182	=182	=182	=182	=182
4g]	.	1r	.	4b]	.	4ccc	.	.
[2.g	.	.	.	[2.bn	.	8bbnL	.	.
.	.	.	.	.	.	8ffJ	.	.
.	.	.	.	.	.	4dd')	.	.
.	.	.	.	.	.	(4bb	.	.
=183	=183	=183	=183	=183	=183	=183	=183	=183
(4g]	.	2r	.	4b]	.	4ccc	.	.
[2.a-)	.	.	.	2bn	.	8bbnL	.	#viio2/iii
.	.	.	.	.	.	8ffJ	.	.
.	.	4r	.	.	.	4dd')	.	.
.	.	[4dd	.	[4b-X [4ff	.	(4bb-X	.	I.V2
=184	=184	=184	=184	=184	=184	=184	=184	=184
4a-]	pp	4dd]	pp	4b-] 4ff]	pp	4ccc	pp	.
[2.a-	.	[2.dd	.	[2.b- [2.ff	.	8bb-L	.	.
.	.	.	.	.	.	8ffJ	.	.
.	.	.	.	.	.	4dd')	.	.
.	.	.	.	.	.	(4bb-	.	.
=185	=185	=185	=185	=185	=185	=185	=185	=185
4a-]	.	4dd]	.	4b-] 4ff]	.	4ccc	.	.
[2.a-	.	[2.dd	.	[2.b- [2.ff	.	8bb-L	.	.
.	.	.	.	.	.	8ffJ	.	.
.	.	.	.	.	.	4dd')	.	.
.	.	.	.	.	.	(4bb-	.	.
=186	=186	=186	=186	=186	=186	=186	=186	=186
4a-]	.	4dd]	.	4b-] 4ff]	.	4ccc	.	.
2.a-	.	2.dd	.	2.b- 2.ff	.	8bb-L	.	.
.	.	.	.	.	.	8ffJ	.	.
.	.	.	.	.	.	4dd')	.	.
.	.	.	.	.	.	(4bb-	.	.
=187	=187	=187	=187	=187	=187	=187	=187	=187
(2g	.	(4ee-	.	(4b- 4gg	.	8ee-L)	.	I6
.	.	.	.	.	.	(8bb-	.	.
.	.	4b-	.	4ee-	.	8gg	.	.
.	.	.	.	.	.	8ee-J	.	.
2f	.	2a-)	.	8ccL	.	2aa-)	.	V43
.	.	.	.	8ff	.	.	.	.
.	.	.	.	8dd	.	.	.	.
.	.	.	.	(8b-J)	.	.	.	.
=188	=188	=188	=188	=188	=188	=188	=188	=188
2g	.	(4ee-	.	(4b-)	.	(8ee-L	.	I6
.	.	.	.	.	.	8bb-	.	.
.	.	4b-	.	4ee-	.	8gg	.	.
.	.	.	.	.	.	8ee-J	.	.
2f	.	2a-)	.	8ccL	.	2aa-)	.	V43
.	.	.	.	8ff	.	.	.	.
.	.	.	.	8dd	.	.	.	.
.	.	.	.	[8b-J)	.	.	.	.
=189	=189	=189	=189	=189	=189	=189	=189	=189
2g	.	(4ee-	.	(4b-]	.	(8ee-L	.	I6
.	.	.	.	.	.	8bb-	.	.
.	.	4b-	.	[4ee-)	.	8gg	.	.
.	.	.	.	.	.	8ee-J	.	.
[2f)	<	8ccL	<	(8ee-L]	<	2aan)	<	V7/v
.	.	8ee-	.	8gg-X	.	.	.	.
.	.	8dd	.	8ff	.	.	.	.
.	.	8ccJ)	.	8ee-J	.	.	.	.
=190	=190	=190	=190	=190	=190	=190	=190	=190
(4f]	.	(4b-	.	4dd-X	.	4bb-	.	v64
4en	[ >	4g	[ >	2cc)	[ >	4ccc	[ >	V6/ii
4f	.	4a-	.	.	.	4aa-X	.	ii
4A-)	]]	4c)	]]	4cc	]]	4ff	]]	ii6
=191	=191	=191	=191	=191	=191	=191	=191	=191
!LO:TX:b:t=p dolce	!	!LO:TX:b:t=p dolce	!	!LO:TX:b:t=p dolce	!	!LO:TX:b:t=p dolce	!	!
(4An	.	(4g-X	.	(4cc	.	(4ee-	.	#viio7/V
2B-)	.	4f	.	4b-	.	4dd	.	V[V64
.	.	4e-	.	4g-X	.	4cc	.	vio6
4B-	.	4d	.	4f	.	4b-	.	V6
=192	=192	=192	=192	=192	=192	=192	=192	=192
(4B-	.	4e-	.	4gn	.	4cc	.	vi6]
4A-X	.	4f	.	2b-)	.	4dd	.	V2
4G	.	4gn	.	.	.	4ee-	.	I6
4F	.	4A-	.	(4ddn	.	4ff	.	viio6
=193	=193	=193	=193	=193	=193	=193	=193	=193
4E-	.	4G	.	4ee-	.	4gg	.	I
4C	.	4E-	.	4gg	.	4bb-	.	vi7
4D	.	4F	.	4ff	.	4aa-)	.	viio
4E-	.	4G)	.	4ee-)	.	4gg'	.	I
=194	=194	=194	=194	=194	=194	=194	=194	=194
4BB-	.	(4G	.	(2ee-	.	(4gg	.	V(64)
4AAn	.	4c	.	.	.	4ff)	.	V65/V
4BB-)	.	4B-)	.	4dd)	.	4ff'	.	V\\
!	!	!LO:TX:b:i:t=dolce	!	!	!	!	!	!
!	!	!LO:TX:a:i:t=dolce	!	!	!	!LO:TX:b:i:t=dolce	!	!
(4DD	.	4F 4A-	.	(4B- 4f	.	[4bb-	.	V65
=195	=195	=195	=195	=195	=195	=195	=195	=195
[1EE-)	.	(8E-L 8G	.	8B-L) 8g	.	2bb-_	.	I[I6
.	.	8B-	.	(8b-	.	.	.	.
.	.	8G	.	8g	.	.	.	.
.	.	8E-J	.	8e-J	.	.	.	.
.	.	2A-)	.	2a-)	.	(8bb-L]	.	V2
.	.	.	.	.	.	8fff	.	.
.	.	.	.	.	.	8ddd	.	.
.	.	.	.	.	.	8bb-J)	.	.
=196	=196	=196	=196	=196	=196	=196	=196	=196
1EE-_	.	(8GL	.	(8gL	.	(4eee-	.	I6
.	.	8B-	.	8a-	.	.	.	.
.	.	8G	.	8g	.	[4bb-)	.	.
.	.	8E-J	.	8e-J	.	.	.	.
.	.	2A-)	.	2a-)	.	(8bb-L]	.	V2
.	.	.	.	.	.	8fff	.	.
.	.	.	.	.	.	8ddd	.	.
.	.	.	.	.	.	8bb-J)	.	.
=197	=197	=197	=197	=197	=197	=197	=197	=197
(4EE-]	.	(8GL	.	(8gL	.	(4eee-	.	I6]
.	.	8B-	.	8b-	.	.	.	.
4GG	.	8G	.	8g	.	8bb-L	.	I6
.	.	8E-J	.	8e-J	.	[8eee-J)	.	.
4GG-X	<	2An)	<[	2an)	<[	(8eee-L]	<	viio2/V
.	.	.	.	.	.	8ggg-X	.	.
4FF)	[[	.	.	.	.	8fff	.	V/V
.	.	.	.	.	.	8eee-J)	[[	.
=198	=198	=198	=198	=198	=198	=198	=198	=198
(2.FF	>	[2B-	>	(4b-	>	(8eee-L	>	V64
.	.	.	.	.	.	8ddd	.	.
.	.	.	.	4ccc	.	8ccc	.	.
.	.	.	.	.	.	8dddJ)	.	.
.	.	(8B-L]	.	4aa-X	.	(8dddL	.	V43
.	.	8D	.	.	.	8ccc)	.	.
8GGnL	.	8E-	.	4ff)	]]	(8ccc	.	V2
8AA-J)	]]	8FJ)	]]	.	.	8bb-J)	]]	.
=199	=199	=199	=199	=199	=199	=199	=199	=199
!LO:TX:b:i:t=cresc.	!	!LO:TX:b:i:t=cresc.	!	!LO:TX:b:i:t=cresc.	!	!LO:TX:b:i:t=cresc.	!	!
(2GG	.	(4G	.	(4ee-	.	(8bb-L	.	I6
.	.	.	.	.	.	8eee-	.	.
.	.	4F	.	4dd	.	8bb-	.	ii7
.	.	.	.	.	.	8dddJ	.	.
2AA-	.	4E-	.	4cc	.	8bb-L	.	IV
.	.	.	.	.	.	8ccc	.	.
.	.	4D	.	4b-	.	8bb-)	.	V2
.	.	.	.	.	.	(8bb-J	.	.
=200	=200	=200	=200	=200	=200	=200	=200	=200
2GG	.	4E-	.	4cc	.	4ccc	.	iii[vi64
.	.	4F	.	4dd	.	4ddd	.	viio
2FF)	.	4G	.	4ee-	.	4eee-	.	ii[I6
.	.	4A-X)	.	4ff	.	4fff	.	ii6]
=201	=201	=201	=201	=201	=201	=201	=201	=201
(4EE-	p	4B-	p	4gg	p	4ggg	p	I
4DD-X	.	(2E-	.	4bb-	.	4bbb-	.	V2/IV
4CC	.	.	.	4aa-	.	4aaa-	.	IV6
4DDn	.	8FL)	.	4ff)	.	4fff)	.	viio
.	.	8A-J	.	.	.	.	.	.
=202	=202	=202	=202	=202	=202	=202	=202	=202
4EE-)	.	(4A-	.	(4ff	.	(4fff	.	I
8E-'L	.	4G)	.	4ee-)	.	4eee-)	.	.
8F'J	.	.	.	.	.	.	.	.
8G'L	.	4G'	.	4ee-'	.	4eee-'	.	I6
8A-'	.	.	.	.	.	.	.	.
8B-'	.	8e-'L	.	8gg'L	.	(4bb-	.	V7
8B-'J	.	8f'J	.	8aa-'J	.	.	.	.
=203	=203	=203	=203	=203	=203	=203	=203	=203
4B-	.	8gL	<	8bb-L	<	4eee-	<	I64
.	.	8f	.	8aa-	.	.	.	.
4r	.	8f	.	8aa-	.	4ddd	.	viio64
.	.	8e-J	.	8ggJ	.	.	.	.
2r	.	8ee-L	.	8ggL	.	4eee-	.	I
.	.	8dd	.	8ff	.	.	.	.
.	.	8cc	.	8ee-	.	4ggg	[[	vi
.	.	8b-J	[[	8ddJ	[[	.	.	.
=204	=204	=204	=204	=204	=204	=204	=204	=204
2r	.	8a-L	>	8ccL	>	4bb-	>	IV
.	.	8g	.	8b-	.	.	.	.
.	.	8a-	.	8cc	.	4aa-	.	viio6
.	.	8fJ	.	8ddJ	.	.	.	.
4r	.	8e-L	]	8ee-L	]	4gg)	]	I
.	.	8g	.	8ee-	.	.	.	.
8B-L	f	8a-	f	8ff	f	4eee-	f	I64
8B-J	.	8b-J	.	8ggJ	.	.	.	.
=205	=205	=205	=205	=205	=205	=205	=205	=205
.	.	.	.	.	.	32qqeee-/LLL	.	V[I6
.	.	.	.	.	.	32qqfff/JJJ	.	.
8B-L	.	8ccL	.	8aa-L	.	(4eee-	.	.
8B-	.	8ee-	.	8gg	.	.	.	.
8B-	.	8ee-	.	8gg	.	4ccc)	.	vi6
8B-J	.	8ddJ	.	8ffJ	.	.	.	.
.	.	.	.	.	.	32qqbb-/LLL	.	#viio6(2)/V
.	.	.	.	.	.	32qqccc/JJJ	.	.
8B-L	.	8ddL	.	8ffL	.	(4bb-	.	.
8B-	.	8cc	.	8ee-	.	.	.	.
8B-	.	8cc	.	8ee-	.	4aan)	.	#viio6/V
8B-J	.	8ddJ	.	8ffJ	.	.	.	.
=206	=206	=206	=206	=206	=206	=206	=206	=206
.	.	.	.	.	.	32qqccc/LLL	.	V6(2)
.	.	.	.	.	.	32qqddd/JJJ	.	.
8B-L	.	8ddL	.	8ffL	.	(4ccc	.	.
8B-	.	8ee-	.	8gg	.	.	.	.
8B-	.	8dd	.	8ff	.	4bb-)	.	V6
8B-J	.	8ccJ	.	8ee-J	.	.	.	.
4B-	.	8ccL	.	8ee-L	.	4bb-	.	V6]
.	.	8b-	.	8dd	.	.	.	.
4r	.	8b-	p	8gg	p	(8bb-L	p	I64
.	.	8a-J	.	8ffJ	.	8eee-J)	.	.
=207	=207	=207	=207	=207	=207	=207	=207	=207
1r	.	8gL	<	8bb-L	<	(4eee-	<	I6
.	.	8f	.	8aa-	.	.	.	.
.	.	8f	.	8aa-	.	4ddd	.	viio6
.	.	8e-J	.	8ggJ	.	.	.	.
.	.	8ee-L	.	8ggL	.	4eee-	.	I
.	.	8dd	.	8ff	.	.	.	.
.	.	8cc	.	8ee-	.	4ggg	[[	vi
.	.	8b-J	[[	8ddJ	[[	.	.	.
=208	=208	=208	=208	=208	=208	=208	=208	=208
2r	.	8a-L	>	8ccL	>	4bb-	>	IV(9)
.	.	8g	.	8b-	.	.	.	.
.	.	8f	.	8cc	.	4aa-X	.	viio6
.	.	8fJ	.	8ddJ	.	.	.	.
4r	.	8fL	.	8ddL	.	4gg)	.	I
.	.	8e-	.	8ee-	.	.	.	.
8e-L	.	8G	]	8b-	]	4eee-	]	I[I6
8e-J	.	8GJ	.	8bnJ	.	.	.	.
=209	=209	=209	=209	=209	=209	=209	=209	=209
.	.	.	.	.	.	32qqeee-/LLL	f	IV
.	.	.	.	.	.	32qqfff/JJJ	.	.
8e-L	f f	8GL	f	8bnL	.	(4eee-	.	.
8e-	.	8A-	.	8cc	.	.	.	.
8e-	.	8A-	.	8cc	.	4ccc)	.	.
8e-J	.	8B-J	.	8ddJ	.	.	.	.
.	.	.	.	.	.	32qqbb-/LLL	f	V
.	.	.	.	.	.	32qqccc/JJJ	.	.
8e-L	.	8B-L	.	8ddL	.	(4bb-	.	.
8e-	.	8c	.	8ee-	.	.	.	.
8e-	.	8c	.	8ee-	.	4aa-)	.	viio
8e-J	.	8dJ	.	8ffJ	.	.	.	.
=210	=210	=210	=210	=210	=210	=210	=210	=210
8e-L	.	8dL	.	8ffL	.	(4gg	.	I
8e-	.	8e-	.	8gg	.	.	.	.
8e-	.	8b-	.	8ff	.	8aa-L	.	V7
8e-J	.	8a-J	.	8ddJ	.	8ffJ	.	viio
4e-	.	4g	.	4ee-	.	8ee-L)	.	I6]
.	.	.	.	.	.	8ddd'	p	.
4r	.	4g	p	(4b-X	p	8eee-'	.	I6
.	.	.	.	.	.	8ccc'J	.	.
=211	=211	=211	=211	=211	=211	=211	=211	=211
4r	.	(4g	<	4ee-	<	8cccL	<	.
.	.	.	.	.	.	8bb-J	.	.
8r	.	4f	.	4dd	.	8b-L	.	V[viio6
8BB-	p	.	.	.	.	8aa-J	.	.
4B-	<	4g	.	4ee-	.	8aa-L	.	I6
.	.	.	.	.	.	8ggJ	.	.
8r	.	4b-	[[	4gg	[[	8gL	.	.
8BB-	[[	.	.	.	.	8ffJ	[[	.
=212	=212	=212	=212	=212	=212	=212	=212	=212
4B-	>	4g	>	4b-	>	8ffL	>	.
.	.	.	.	.	.	8ee-	.	.
8r	.	4f	.	4a-	.	8ff	.	viio6
8BB-	.	.	.	.	.	8ggJ	.	.
4B-	]	4e-	.	4g)	.	8aa-L	.	I
.	.	.	.	.	.	8aan	.	.
8r	.	4g)	]]	4ee-	]]	8bb-	.	I6
8BB-	.	.	.	.	.	8cccJ	]]	.
=213	=213	=213	=213	=213	=213	=213	=213	=213
.	.	.	.	32qqee-/LLL	f	.	.	.
.	.	.	.	32qqff/JJJ	.	.	.	.
4B-	f	(4g	f	(4ee-	.	8bb-L	f	.
.	.	.	.	.	.	8aan	.	.
8r	.	4e-)	.	4cc)	.	8bb-	.	vi65
8BB-	.	.	.	.	.	8cccJ	.	.
.	.	32qqd/LLL	.	32qqb-/LLL	.	.	.	.
.	.	32qqe-/JJJ	.	32qqcc/JJJ	.	.	.	.
4B-	.	(4d	.	(4b-	.	8dddL	.	V
.	.	.	.	.	.	8eee-	.	.
8r	.	4c)	.	4an)	.	8fff	.	V64/V
8BB-	.	.	.	.	.	8fffJ	.	.
=214	=214	=214	=214	=214	=214	=214	=214	=214
.	.	32qqe-/LLL	.	32qqcc/LLL	.	.	.	.
.	.	32qqf/JJJ	.	32qqdd/JJJ	.	.	.	.
4B-	.	(4e-	.	(4cc	.	8fffL	.	V2/V
.	.	.	.	.	.	8fff	.	.
8r	.	4d)	.	4b-)	.	8ggg	.	iii64
8BB-	.	.	.	.	.	8aaanJ	.	.
4B-	.	4d	.	4b-	.	8bbb-L	p	V6
.	.	.	.	.	.	8bb-	.	.
8r	.	4g	p <	(4b-	p <	8ccc	.	I6
8BB-	p <	.	.	.	.	8bb-J	.	.
=215	=215	=215	=215	=215	=215	=215	=215	=215
4B-	.	(4g	.	4ee-	.	8cccL	<	.
.	.	.	.	.	.	8bb-J	.	.
8r	.	4f	.	4dd	.	8b-L	.	V43
8BB-	.	.	.	.	.	8aa-XJ	.	.
4B-	.	4g	.	4ee-	.	8aa-L	.	I6
.	.	.	.	.	.	8ggJ	.	.
8r	.	4b-	[[	4gg	[[	8gL	<	.
8BB-	[[	.	.	.	.	8ffJ	[[	.
=216	=216	=216	=216	=216	=216	=216	=216	=216
4B-	>	4g	>	4b-	>	8ffL	[ >	I6]
.	.	.	.	.	.	8ee-J	.	.
8r	.	4f	.	4a-	.	8eee-L	.	.
8B-	.	.	.	.	.	8dddJ	.	.
4e-	]	4e-)	]	4g)	]	8eee-L	]	I
.	.	.	.	.	.	8ddd	.	.
8r	.	4g	.	4ee-	.	8ccc	.	.
8E-	.	.	.	.	.	8bbnJ	.	.
=217	=217	=217	=217	=217	=217	=217	=217	=217
4A-	f	(4cc	f	(4ee-	f	8bbnL	f	IV
.	.	.	.	.	.	8ccc	.	.
8r	.	4a-)	.	4cc)	.	8ddd	.	.
8AA-	.	.	.	.	.	8eee-J	.	.
.	.	32qqg/LLL	.	32qqb-/LLL	.	.	.	.
.	.	32qqa-/JJJ	.	32qqcc/JJJ	.	.	.	.
4A-	.	(4g	.	(4b-	.	8eeenL	.	ii6
.	.	.	.	.	.	8fff	.	.
8r	.	4f)	.	4a-)	.	8ggg	.	V7
8BB-	.	.	.	.	.	8aaa-J	.	.
=218	=218	=218	=218	=218	=218	=218	=218	=218
4B-	.	(8e-L	.	(4g	.	8aaanL	.	V(64)
.	.	8B-)	.	.	.	8bbb-	.	.
8r	.	(8B-	.	8a-L	.	8cccc	.	V7
8BB-	.	8A-J)	.	8fJ)	.	8ddddJ	.	.
8E-L	.	8G'L	.	8e-'L	.	4eeee-	.	I\\
8E-	.	(8G	.	(8b-	.	.	.	.
8E-	.	8A-	.	8cc	.	4ee-	.	IV64
8E-J	.	8FJ)	.	8a-J)	.	.	.	.
=219	=219	=219	=219	=219	=219	=219	=219	=219
4E-'	.	4G'	.	4g'	.	4ee-'	.	I[I6
4a-'	.	4e-'	.	4cc'	.	4ee-'	.	IV
4g'	.	4e-'	.	4b-'	.	4ee-'	.	I6
4f'	.	4e-'	.	4a-'	.	4ee-'	.	ii2
=220	=220	=220	=220	=220	=220	=220	=220	=220
4e-'	.	4e-'	.	4g'	.	(4ee-	.	I
4d'	.	4ee-'	.	4f'	.	8ffL	.	viio
.	.	.	.	.	.	8ggJ	.	.
4c'	.	4ee-'	.	4e-'	.	4aa-X'	.	IV6
4B-'	.	4ee-'	.	4e-'	.	4gg')	.	I64
=221	=221	=221	=221	=221	=221	=221	=221	=221
4A-'	f	4ee-'	f	4e-'	f	4ccc'	f	IV
4G'	.	4ee-'	.	(8b-L	.	4bb-'	.	I6]
.	.	.	.	8ccJ	.	.	.	.
.	.	.	.	.	.	16qqbb-/	f	V43
4F'	f	4b-'	f	4dd')	f	4aa-'	.	.
4E-'	.	4b-'	.	4ee-'	.	4gg'	.	I
=222	=222	=222	=222	=222	=222	=222	=222	=222
.	.	.	.	.	.	16qqgg/	f	V
4BB-'	f	4b-'	f	4dd'	f	4ff'	.	.
4B-'	.	4b-'	.	4cc'	.	4ee-'	.	V(94)
4B-'	f	4b-'	f	4dd'	f	4ff'	f	V\\
4f'	.	4a-'	.	4r	.	4b-'	.	V43
=223	=223	=223	=223	=223	=223	=223	=223	=223
4e-'	.	4g'	.	1r	.	4ee-'	.	I[I
4a-'	.	4cc'	.	.	.	4ee-'	.	IV
4g'	.	4b-'	.	.	.	4ee-'	.	I6
4f'	.	4a-'	.	.	.	4ee-'	.	viio6
=224	=224	=224	=224	=224	=224	=224	=224	=224
4e-'	.	4g'	.	4e-	.	(4ee-	.	I
4d'	.	4f'	.	4ee-	.	8ffL	.	viio
.	.	.	.	.	.	8ggJ	.	.
4c'	.	4e-'	.	4ee-	.	4aa-')	.	IV6
4B-'	.	4e-'	.	4ee-	.	4gg'	.	I64
=225	=225	=225	=225	=225	=225	=225	=225	=225
4A-'	.	4b-	.	4ee-	.	4ccc	.	IV(+2)
4G'	.	8b-L	.	4ee-	.	4bb-	.	I6]
.	.	8ccJ	.	.	.	.	.	.
.	.	.	.	.	.	16qqbb-/	f	V43
4F'	f	4dd	f	4ff	f	4aa-	.	.
4E-'	.	4ee-	.	4gg	.	4gg	.	I
=226	=226	=226	=226	=226	=226	=226	=226	=226
.	.	.	.	.	.	16qqgg/	f	V
4B-	f	4dd	f f	4b-	.	4ff	.	.
4r	.	4r	.	4cc	.	4ee-	.	vi
.	.	.	.	.	.	16qqee-/	f	V
4r	.	4r	f	4b-	.	4dd	.	.
4BB-	.	4B-	.	4a-	.	4cc	.	V7(9)
=227	=227	=227	=227	=227	=227	=227	=227	=227
.	.	.	.	16qqa-/	p	16qqcc/	p	I6
4G	p	4B-	p	4g	.	4b-	.	.
4F	.	4A-	.	4f	.	4a-	.	ii
.	.	.	.	16qqf/	.	16qqa-/	.	I
4E-	.	4G	.	4e-	.	4g	.	.
4BB-	.	4F	.	4B-	.	4f	.	V
=228	=228	=228	=228	=228	=228	=228	=228	=228
.	.	.	.	.	.	16qqf/	.	I6
4GG	.	4E-	.	4G	.	4e-	.	.
4r	.	4r	.	4r	.	4d	.	.
.	.	.	.	.	.	16qqd/	.	.
2r	.	2r	.	2r	.	4c	.	.
.	.	.	.	.	.	4B-	.	.
=229	=229	=229	=229	=229	=229	=229	=229	=229
.	.	.	.	.	.	16qqddd/	f	vii%7
2r	.	4d'	f	4aa-'	f	4ccc'	.	.
.	.	4e-'	.	4gg'	.	4bb-'	.	I
.	.	.	.	.	.	16qqbb-/	f	V65
4d'	f	4b-'	f	4ff'	f	4aa-'	.	.
4e-'	.	4b-'	.	4ee-'	.	4gg'	.	I
=230	=230	=230	=230	=230	=230	=230	=230	=230
.	.	.	.	.	.	16qqgg/	f	V64
4f	f	4b-	f	4dd	f	4ff	.	.
4E-	.	4f	.	4cc	.	4ee-	.	V2/V
.	.	.	.	.	.	16qqee-/	f	V[V64
4B-	f	4f	f f	4b-	.	4dd	.	.
4B-	.	4g-X	.	4e- 4an	.	4cc	.	#viio2/V]
=231	=231	=231	=231	=231	=231	=231	=231	=231
4GG-X'	p	4G-X'	p	1r	.	4g-X'	p	I
4GGn'	.	4Gn'	.	.	.	4gn'	.	.
4EE-'	.	4E-'	.	.	.	4e-'	.	.
4GG'	.	4G'	.	.	.	4g'	.	.
=232	=232	=232	=232	=232	=232	=232	=232	=232
4AA-'	.	4A-'	.	2r	.	4a-'	.	IV
4AAn'	.	4An'	.	.	.	4an'	.	.
2C	f f	2C 2c	f	4c'	.	2cc	f	IV6
.	.	.	.	4cc'	.	.	.	.
=233	=233	=233	=233	=233	=233	=233	=233	=233
4D-X'	p	1r	.	1r	p	4d-X'	.	V
4Dn'	.	.	.	.	.	4dn'	.	.
4BB-'	.	.	.	.	.	4B-'	.	.
4D'	.	.	.	.	.	4d'	.	.
=234	=234	=234	=234	=234	=234	=234	=234	=234
4E-'	.	2r	.	2r	.	4e-'	.	I
4En'	.	.	.	.	.	4en'	.	.
2G	f	4G'	f f	4g'	.	2g	f	I6
.	.	4g'	.	4gg'	.	.	.	.
=235	=235	=235	=235	=235	=235	=235	=235	=235
4En'	p	2r	.	2r	.	4en'	p	.
4F'	.	.	.	.	.	4f'	.	ii
2A-	f	4A-'	f	4a-'	f	2a-	f	.
.	.	4a-'	.	4aa-'	.	.	.	.
=236	=236	=236	=236	=236	=236	=236	=236	=236
4F#X'	p	2r	.	2r	.	4f#X'	p	.
4G'	.	.	.	.	.	4g'	.	iii
2B-	f	4B-'	f f	4b-'	.	2b-	f	.
.	.	4b-'	.	4bb-'	.	.	.	.
=237	=237	=237	=237	=237	=237	=237	=237	=237
4FFn'	ff	4G#X'	ff ff	4g#X'	.	1ee-X 1eee-X	ff	V7/V
4FF'	.	4An'	.	4an'	.	.	.	.
2FF	.	2F 2A	.	2a 2cc	.	.	.	.
=238	=238	=238	=238	=238	=238	=238	=238	=238
4FFn'	.	4G#X'	.	4g#X'	.	1ee- 1eee-	.	.
4FF'	.	4An'	.	4an'	.	.	.	.
2FF	.	2F 2A	.	2a 2cc	.	.	.	.
=239	=239	=239	=239	=239	=239	=239	=239	=239
4FFn'	.	4G#X'	.	4g#X'	.	1ee- 1eee-	.	.
4FF'	.	4An'	.	4an'	.	.	.	.
2FF	.	2F 2A	.	2a 2cc	.	.	.	.
=240	=240	=240	=240	=240	=240	=240	=240	=240
(4GG	.	(4B-	.	4b- 4bb-	.	(4ee- 4eee-	.	I6
4AA-	.	4c	.	(8bb-L	.	8dddL	.	IV
.	.	.	.	8aa-XJ	.	8cccJ	.	.
4BB-')	.	4e-')	.	4gg')	.	4bb-')	.	V(64)
(8dL	.	(8fL	.	(8ffL	.	(8aa-L	.	V7
8e-J)	.	8gJ)	.	8ee-J)	.	8ggJ)	.	.
=241	=241	=241	=241	=241	=241	=241	=241	=241
!	!LO:DY:a	!	!	!	!	!	!	!
4FF' 4C	ff ff	4F' 4c	.	4gg#X'	ff	4eee-'	ff	V7/V
4FF' 4C	.	4F' 4c	.	4an' 4aan	.	(12fffL	.	.
.	.	.	.	.	.	12eee-	.	.
.	.	.	.	.	.	12dddJ)	.	.
2FF 2C	.	2F 2c	.	2a 2ccc	.	4eee-'	.	.
.	.	.	.	.	.	(12fffL	.	.
.	.	.	.	.	.	12eee-	.	.
.	.	.	.	.	.	12dddJ)	.	.
=242	=242	=242	=242	=242	=242	=242	=242	=242
4FF' 4C	.	4F' 4c	.	4gg#X'	.	4eee-'	.	.
4FF' 4C	.	4F' 4c	.	4an' 4aan	.	(12fffL	.	.
.	.	.	.	.	.	12eee-	.	.
.	.	.	.	.	.	12dddJ)	.	.
2FF 2C	.	2F 2c	.	2a 2ccc	.	4eee-'	.	.
.	.	.	.	.	.	(12fffL	.	.
.	.	.	.	.	.	12eee-	.	.
.	.	.	.	.	.	12dddJ)	.	.
=243	=243	=243	=243	=243	=243	=243	=243	=243
4FF' 4C	.	4F' 4c	.	4gg#X'	.	4eee-'	.	.
4FF' 4C	.	4F' 4c	.	4an' 4aan	.	(12fffL	.	.
.	.	.	.	.	.	12eee-	.	.
.	.	.	.	.	.	12dddJ)	.	.
2FF 2C	.	2F 2c	.	2a 2ccc	.	4eee-'	.	.
.	.	.	.	.	.	(12fffL	.	.
.	.	.	.	.	.	12eee-	.	.
.	.	.	.	.	.	12dddJ)	.	.
=244	=244	=244	=244	=244	=244	=244	=244	=244
(4GG	.	(4G	.	(8b-L	.	(4eee-	.	I6
.	.	.	.	8bb-J)	.	.	.	.
4AA-	.	4C	.	(8bb-L	.	8dddL	.	IV
.	.	.	.	8aa-XJ	.	8cccJ	.	.
4BB-')	.	8E-'L)	.	4gg')	.	4bb-')	.	V(64)
.	.	(8e-	.	.	.	.	.	.
(8dL	.	8f	.	(8ffL	.	(8aa-L	.	V7
8e-J)	.	8gJ)	.	8ee-J)	.	8ggJ)	.	.
=245	=245	=245	=245	=245	=245	=245	=245	=245
(8cL	.	(8e-L	.	(8ggL	.	(8bb-L	.	viio
8d)	.	8f	.	8ff	.	8aa-	.	.
8en'	.	8g	.	8een	.	8gg	.	.
8d'J	.	8fJ)	.	8ffJ)	.	8aa-J)	.	.
4d'	.	4f'	.	4ff'	.	4aa-'	.	.
4d'	.	4f'	.	4ff'	.	4aa-'	.	.
=246	=246	=246	=246	=246	=246	=246	=246	=246
(8dL	.	(8fL	.	(8ffL	.	(8aa-L	.	I
8e-)	.	8g)	.	8ee-X	.	8gg	.	.
8e-'	.	8g'	.	8dd	.	8ff#X	.	.
8e-'J	.	8g'J	.	8ee-J)	.	8ggJ)	.	.
4e-	.	4g	.	4ee-	.	4gg	.	.
4c	p	4e-	p	4r	.	4r	.	@none
=247	=247	=247	=247	=247	=247	=247	=247	=247
(8B-L	.	(8dL	.	1r	.	1r	.	.
8A-	.	8c	.	.	.	.	.	.
8G	.	8B-	.	.	.	.	.	.
8A-J)	.	8cJ)	.	.	.	.	.	.
4G'	.	4B-'	.	.	.	.	.	.
4A-'	.	4c'	.	.	.	.	.	.
=248	=248	=248	=248	=248	=248	=248	=248	=248
(8GL	.	(8B-L	.	2r	.	2r	.	.
8F	.	8A-	.	.	.	.	.	.
8E-	.	8G	.	.	.	.	.	.
8FJ)	.	8A-J)	.	.	.	.	.	.
4E-	.	4G	.	4r	.	4r	.	I
4e-	f	4g	f	(8aa-L	f	(8cccL	f	.
.	.	.	.	8ggJ)	.	8bb-J)	.	.
=249	=249	=249	=249	=249	=249	=249	=249	=249
(8cL	.	(8e-L	.	(8ggL	.	(8bb-L	.	viio
8d)	.	8f	.	8ff	.	8aa-	.	.
8d'	.	8g	.	8een	.	8gg	.	.
8d'J	.	8fJ)	.	8ffJ)	.	8aa-J)	.	.
4d'	.	4f'	.	4ff'	.	4aa-'	.	.
4d'	.	4f'	.	4ff'	.	4aa-'	.	.
=250	=250	=250	=250	=250	=250	=250	=250	=250
(8dL	.	(8fL	.	(8ffL	.	(8aa-L	.	I
8e-)	.	8g)	.	8ee-X	.	8gg	.	.
8e-'	.	8g'	.	8dd	.	8ff#X	.	.
8e-'J	.	8g'J	.	8ee-J)	.	8ggJ)	.	.
!	!	!	!	!LO:TX:b:i:t=dim.	!	!LO:TX:b:i:t=dim.	!	!
4e-'	.	4g	.	4ee-'	.	4gg'	.	.
4r	.	4r	.	4gg'	.	4bb-'	.	.
=251	=251	=251	=251	=251	=251	=251	=251	=251
!LO:TX:b:i:t=dim.	!	!	!	!	!	!	!	!
!LO:TX:a:i:t=dim.	!	!	!	!	!	!	!	!
(8AAnL	.	(8CL	.	(8ggL	.	(8bb-L	.	V7
8BB-J)	.	8DJ)	.	8ff	.	8aa-	.	.
4r	.	4r	.	8een	.	8gg	.	.
.	.	.	.	8ffJ)	.	8aa-J)	.	.
2r	.	2r	.	4ff'	.	4aa-'	.	.
.	.	.	.	4ff'	.	4aa-'	.	.
=252	=252	=252	=252	=252	=252	=252	=252	=252
4BBn	.	(8DL	.	(8ggL	.	(8bb-L	.	#viio7/vi
.	.	8E-J)	.	8ff	.	8aa-	.	.
4r	.	4r	.	8een	.	8gg	.	.
.	.	.	.	8ffJ)	.	8aa-J)	.	.
2r	.	2r	.	4ff'	.	4aa-'	.	.
.	.	.	.	4ff'	.	4aa-'	.	.
=253	=253	=253	=253	=253	=253	=253	=253	=253
(8BBnL	.	(8DL	.	(8ffL	.	(8aa-L	.	vi
8CJ)	.	8E-J)	.	8ee-X	.	8gg	.	.
4r	.	4r	.	8dd	.	8ff#X	.	.
.	.	.	.	8ee-J)	.	8ggJ)	.	.
2r	.	2r	.	4ee-'	.	4gg'	.	.
.	.	.	.	4ee-'	.	4gg'	.	.
=254	=254	=254	=254	=254	=254	=254	=254	=254
!	!	!	!	!	!	!LO:TX:a:t=rit.	!	!
(8CL	p p	(8E-L	.	(4ee-'	p	(4gg'	p	.
8E-J)	.	8GJ)	.	.	.	.	.	.
4r	.	4r	.	4ee-'	.	4gg'	.	.
2r	.	2r	.	4ee-'	.	4gg'	.	.
.	.	.	.	4ee-')	.	4gg')	.	.
=255	=255	=255	=255	=255	=255	=255	=255	=255
(8CL	pp pp	(8EnL	.	(4een'	pp	(4gg'	pp	VI
8EnJ)	.	8GJ)	.	.	.	.	.	.
(4c'	.	4r	.	4ee'	.	4gg'	.	.
4c'	.	2r	.	4ee'	.	4gg'	.	.
4c')	.	.	.	4ee')	.	4gg')	.	.
=256||	=256||	=256||	=256||	=256||	=256||	=256||	=256||	=256||
*k[]	*	*k[]	*	*k[]	*	*k[]	*	*
*C:	*	*C:	*	*C:	*	*C:	*	*
*M6/8	*	*M6/8	*	*M6/8	*	*M6/8	*	*
!	!	!	!	!	!	!LO:TX:a:B:t=Allegro con moto	!	!
*MM120	*	*MM120	*	*MM120	*	*MM120	*	*
!	!	!	!	!	!	!LO:TX:a:t=[quarter]=120	!	!
[2.c	.	2.r	.	[2.een	.	2.ggT	.	VI.I[I6
=257	=257	=257	=257	=257	=257	=257	=257	=257
2.c]	.	2.r	.	2.ee_	.	[2.ggT	.	.
=258	=258	=258	=258	=258	=258	=258	=258	=258
(8cL	>	(8eL	>	4.ee]	>	4.gg]	>	.
8eJ)	.	8gJ)	.	.	.	.	.	.
8r	]	8r	]	.	.	.	.	.
(8cL	.	(8eL	pp	(24eeLL	] pp	(24ggLL	] pp	.
.	.	.	.	24dd	.	24ff	.	.
.	.	.	.	24ccJJ	.	24eeJJ	.	.
8eJ)	.	8gJ)	.	24bLL	.	24ddLL	.	.
.	.	.	.	24a	.	24cc	.	.
.	.	.	.	24gJJ	.	24bJJ	.	.
8r	.	8r	.	24fLL	.	24aLL	.	.
.	.	.	.	24e	.	24g	.	.
.	.	.	.	24dJJ)	.	24bJJ)	.	.
=259	=259	=259	=259	=259	=259	=259	=259	=259
[4.c	.	(8e	.	(24eLL	.	(8ccL	.	.
.	.	.	.	24c	.	.	.	.
.	.	.	.	24dJJ	.	.	.	.
.	.	4cc)	.	24eLL	.	8ggJ)	.	.
.	.	.	.	24f	.	.	.	.
.	.	.	.	24gJJ	.	.	.	.
.	.	.	.	24aLL	.	16ee'LL	.	.
.	.	.	.	24b	.	.	.	.
.	.	.	.	.	.	16cc'JJ	.	.
.	.	.	.	24ccJJ	.	.	.	.
4.c]	.	4.b	.	24ddLL	.	(16gLL	.	V7
.	.	.	.	24ee	.	.	.	.
.	.	.	.	.	.	[16ffJJ)	.	.
.	.	.	.	24ccJJ	.	.	.	.
.	.	.	.	24bLL	.	4ff]	.	.
.	.	.	.	24a	.	.	.	.
.	.	.	.	24gJJ	.	.	.	.
.	.	.	.	24fLL	.	.	.	.
.	.	.	.	24e	.	.	.	.
.	.	.	.	24dJJ)	.	.	.	.
=260	=260	=260	=260	=260	=260	=260	=260	=260
[4.c	.	(8e	.	(24eLL	.	(8ccL	.	I6
.	.	.	.	24c	.	.	.	.
.	.	.	.	24dJJ	.	.	.	.
.	.	4cc)	.	24eLL	.	8ggJ)	.	.
.	.	.	.	24f	.	.	.	.
.	.	.	.	24gJJ	.	.	.	.
.	.	.	.	24aLL	.	16ee'LL	.	.
.	.	.	.	24b	.	.	.	.
.	.	.	.	.	.	16cc'JJ	.	.
.	.	.	.	24ccJJ	.	.	.	.
(4.c]	.	[4.e-X	.	24ccLL	.	(16f#XLL	.	#viio2/V]
.	.	.	.	24ee-X	.	.	.	.
.	.	.	.	.	.	[16ff#XJJ)	.	.
.	.	.	.	24ccJJ	.	.	.	.
.	.	.	.	24ee-LL	.	4ff#]	.	.
.	.	.	.	24cc	.	.	.	.
.	.	.	.	24ee-JJ	.	.	.	.
.	.	.	.	24ccLL	.	.	.	.
.	.	.	.	24ee-	.	.	.	.
.	.	.	.	24ccJJ)	.	.	.	.
=261	=261	=261	=261	=261	=261	=261	=261	=261
(8cL)	.	(8e-L]	.	(24ee-XLL	.	(16gLL	.	vi.i
.	.	.	.	24cc	.	.	.	.
.	.	.	.	.	.	16ggJJ)	.	.
.	.	.	.	24ee-JJ	.	.	.	.
!	!	!LO:TX:a:i:t=sempre pp	!	!	!	!LO:TX:b:i:t=sempre pp	!	!
16A-XJk)	.	16ccJk)	.	24ccLL	.	(16a-XLL	.	VI
.	.	.	.	24ee-	.	.	.	.
16r	.	16r	.	.	.	16aa-XJJ)	.	.
.	.	.	.	24dd-XJJ	.	.	.	.
8r	.	8r	.	24ccLL	.	(24ee-XLL	.	.
.	.	.	.	24dd-	.	24ff	.	.
.	.	.	.	24b-XJJ	.	24dd-XJJ	.	.
4r	.	4r	.	24a-XLL	.	24ccLL	.	.
.	.	.	.	24b-	.	24dd-	.	.
.	.	.	.	24gJJ	.	24b-XJJ	.	.
.	.	.	.	24fLL	.	24a-LL	.	.
.	.	.	.	24g	.	24b-	.	.
.	.	.	.	24e-XJJ	.	24gJJ	.	.
8r	.	8r	.	24d-XLL	.	24fLL	.	.
.	.	.	.	24c	.	24e-X	.	.
.	.	.	.	24B-XJJ)	.	24gJJ)	.	.
=262	=262	=262	=262	=262	=262	=262	=262	=262
!LO:TX:b:i:t=sempre pp	!	!LO:TX:b:i:t=sempre pp	!	!	!	!	!	!
[4.AA-X	.	(24cLL	.	(8a-XL	.	(24e-XLL	.	IV.I[I6
.	.	24A-X	.	.	.	24c	.	.
.	.	24B-XJJ	.	.	.	24d-XJJ	.	.
.	.	24cLL	.	8ee-XJ)	.	24e-LL	.	.
.	.	24d-X	.	.	.	24f	.	.
.	.	24e-XJJ	.	.	.	24gJJ	.	.
.	.	24fLL	.	16cc'LL	.	24a-XLL	.	.
.	.	24g	.	.	.	24b-X	.	.
.	.	.	.	16a-'JJ	.	.	.	.
.	.	24a-XJJ	.	.	.	24ccJJ	.	.
(4.AA-]	.	24b-XLL	.	(16e-XLL	.	24dd-XLL	.	V7
.	.	24a-	.	.	.	24cc	.	.
.	.	.	.	[16dd-XJJ)	.	.	.	.
.	.	24gJJ	.	.	.	24b-JJ	.	.
.	.	24fLL	.	4dd-]	.	24a-LL	.	.
.	.	24e-	.	.	.	24g	.	.
.	.	24d-JJ	.	.	.	24fJJ	.	.
.	.	24cLL	.	.	.	24e-LL	.	.
.	.	24d-	.	.	.	24f	.	.
.	.	24B-JJ)	.	.	.	24gJJ)	.	.
=263	=263	=263	=263	=263	=263	=263	=263	=263
[4.AA-X)	.	(24cLL	.	(8a-XL	.	(24e-XLL	.	I6
.	.	24A-X	.	.	.	24c	.	.
.	.	24BJJ	.	.	.	24d-XJJ	.	.
.	.	24cLL	.	8ee-XJ)	.	24e-LL	.	.
.	.	24d-X	.	.	.	24f	.	.
.	.	24e-XJJ	.	.	.	24gJJ	.	.
.	.	24fLL	.	16cc'LL	.	24a-XLL	.	.
.	.	24g	.	.	.	24b-X	.	.
.	.	.	.	16a-'JJ	.	.	.	.
.	.	24a-XJJ	.	.	.	24ccJJ	.	.
(4.AA-]	.	24a-LL	.	(16dnLL	.	24cc-XLL	.	viio7/V
.	.	24cc-X	.	.	.	24a-	.	.
.	.	.	.	[16ddnJJ)	.	.	.	.
.	.	24a-JJ	.	.	.	24cc-JJ	.	.
.	.	24cc-LL	.	4dd]	.	24a-LL	.	.
.	.	24a-	.	.	.	24cc-	.	.
.	.	24cc-JJ	.	.	.	24a-JJ	.	.
.	.	24a-LL	.	.	.	24cc-LL	.	.
.	.	24cc-	.	.	.	24a-	.	.
.	.	24a-JJ	.	.	.	24cc-JJ	.	viio7/V]
=264	=264	=264	=264	=264	=264	=264	=264	=264
(8AA-XL)	.	24cc-XLL	.	(16d#XLL	.	24a-XLL	.	#iv.viio
.	.	24a-X	.	.	.	24cc-X	.	.
.	.	.	.	16dd#XJJ)	.	.	.	.
.	.	24cc-JJ	.	.	.	24a-JJ	.	.
16FF-XJk)	.	24a-LL	.	(16enLL	.	24cc-LL	.	V7(+2)
.	.	24cc-	.	.	.	24a-	.	.
16r	.	.	.	16eenJJ)	.	.	.	.
.	.	24a-JJ)	.	.	.	24cc-JJ)	.	.
8r	.	(24G#XLL	.	(24eeLL	.	(24enLL	.	.
.	.	24G#	.	24dd#	.	24e	.	.
.	.	24G#JJ	.	24cc#XJJ	.	24eJJ	.	.
4r	.	24G#LL	.	24bnLL	.	24eLL	.	.
.	.	24An	.	24an	.	24f#X	.	.
.	.	24BnJJ	.	24g#XJJ	.	24g#XJJ	.	.
.	.	24c#XLL	.	24f#XLL	.	24anLL	.	.
.	.	24d#X	.	24en	.	24bn	.	.
.	.	24enJJ	.	24d#JJ	.	24cc#XJJ	.	.
8r	.	24f#XLL	.	24c#XLL	.	24dd#XLL	.	.
.	.	24g#X	.	24Bn	.	24een	.	.
.	.	24anJJ)	.	24GJJ)	.	24ff#XJJ)	.	.
=265	=265	=265	=265	=265	=265	=265	=265	=265
!LO:TX:b:i:t=sempre pp	!	!LO:TX:b:i:t=sempre pp	!	!LO:TX:b:i:t=sempre pp	!	!LO:TX:a:i:t=sempre pp	!	!
(8eenL	.	8bn	.	24G#XLL	.	(24gg#XLL	.	V
.	.	.	.	(24gg#X	.	24ee	.	.
.	.	.	.	24ff#XJJ	.	24ff#XJJ	.	.
8bbnJ)	.	[4En	.	24eeLL	.	24gg#LL	.	.
.	.	.	.	24dd#X	.	24aa	.	.
.	.	.	.	24cc#XJJ	.	24bbJJ	.	.
16gg'LL	.	.	.	24bLL	.	24ccc#XLL	.	.
.	.	.	.	24a	.	24ddd#X	.	.
16ee'JJ	.	.	.	.	.	.	.	.
.	.	.	.	24g#XJJ	.	24eeeJJ	.	.
16eeLL	.	(4.E]	.	24f#XLL	.	24fff#XLL	.	.
.	.	.	.	24g#	.	24eee	.	.
[16aanJJ	.	.	.	.	.	.	.	.
.	.	.	.	24aJJ	.	24ddd#JJ	.	.
4aa]	.	.	.	24bLL	.	24ccc#LL	.	.
.	.	.	.	24cc#	.	24bb	.	.
.	.	.	.	24dd#JJ	.	24aaJJ	.	.
.	.	.	.	24eeLL	.	24gg#LL	.	.
.	.	.	.	24ff#	.	24aa	.	.
.	.	.	.	24dd#JJ)	.	24ff#JJ)	.	.
=266	=266	=266	=266	=266	=266	=266	=266	=266
(8eeL	.	[4.E)	.	(24bbLL	.	(24gg#XLL	.	.
.	.	.	.	24gg#X	.	24ee	.	.
.	.	.	.	24ff#XJJ	.	24ff#XJJ	.	.
8bbJ)	.	.	.	24eeLL	.	24gg#LL	.	.
.	.	.	.	24dd#X	.	24aa	.	.
.	.	.	.	24cc#XJJ	.	24bbJJ	.	.
16gg#X'LL	.	.	.	24bLL	.	24ccc#XLL	.	.
.	.	.	.	24a	.	24ddd#X	.	.
16ee'JJ	.	.	.	.	.	.	.	.
.	.	.	.	24g#XJJ	.	24eeeJJ	.	.
4.aa	.	4.E]	.	24aLL	.	24ff#LL	.	.
.	.	.	.	24aa	.	24fff#X	.	.
.	.	.	.	24aJJ	.	24ff#JJ	.	.
.	.	.	.	24aaLL	.	24fff#LL	.	.
.	.	.	.	24a	.	24ff#	.	.
.	.	.	.	24aaJJ	.	24fff#JJ	.	.
.	.	.	.	24aLL	.	24ff#LL	.	.
.	.	.	.	24aa	.	24fff#	.	.
.	.	.	.	24aJJ)	.	24ff#JJ)	.	.
=267	=267	=267	=267	=267	=267	=267	=267	=267
8aa'L	.	8E-X'L	.	8aa'L	.	(24fff#XLL	.	I.I
.	.	.	.	.	.	24ff#X	.	.
.	.	.	.	.	.	24fff#JJ	.	.
8bb-X'J	.	8E-'J	.	8bb-X'J	.	24ggnLL	.	.
.	.	.	.	.	.	24gggn	.	.
.	.	.	.	.	.	24ggJJ	.	.
8r	.	8r	.	8r	.	24gggLL	.	.
.	.	.	.	.	.	24gg	.	.
.	.	.	.	.	.	24gggJJ)	.	.
8bbn'L	.	8E-'L	.	8bbn'L	.	(24ggLL	.	.
.	.	.	.	.	.	24ggg	.	.
.	.	.	.	.	.	24ggJJ	.	.
8cccn'J	.	8E-'J	.	8cccn'J	.	24aaa-XLL	.	I(64)
.	.	.	.	.	.	24aa-X	.	.
.	.	.	.	.	.	24aaa-JJ	.	.
8r	.	8r	.	8r	.	24aa-LL	.	.
.	.	.	.	.	.	24aaa-	.	.
.	.	.	.	.	.	24aa-JJ)	.	.
=268	=268	=268	=268	=268	=268	=268	=268	=268
8ddd-X'L	.	8E-X'L	.	8ffn'L	.	(24aaa-XLL	.	I(94)
.	.	.	.	.	.	24aa-X	.	.
.	.	.	.	.	.	24aaa-JJ	.	.
8dddn'J	.	8E-'J	.	8ff'J	.	24aa-LL	.	.
.	.	.	.	.	.	24aaa-	.	.
.	.	.	.	.	.	24aa-JJ	.	.
8r	.	8r	.	8r	.	24aaa-LL	.	.
.	.	.	.	.	.	24aa-	.	.
.	.	.	.	.	.	24aaa-JJ)	.	.
8ddd'L	.	8E-'L	.	8ff'L	.	(24aa-LL	.	.
.	.	.	.	.	.	24aaa-	.	.
.	.	.	.	.	.	24aa-JJ	.	.
8eee-X'J	.	8E-'J	.	8b-X'J 8ggn	.	24gggLL	.	I
.	.	.	.	.	.	24gg	.	.
.	.	.	.	.	.	24gggJJ	.	.
8r	.	8r	.	8r	.	24ggLL	.	.
.	.	.	.	.	.	24ggg	.	.
.	.	.	.	.	.	24ggJJ)	.	.
=269||	=269||	=269||	=269||	=269||	=269||	=269||	=269||	=269||
*k[b-e-a-]	*	*k[b-e-a-]	*	*k[b-e-a-]	*	*k[b-e-a-]	*	*
*E-:	*	*E-:	*	*E-:	*	*E-:	*	*
!	!	!	!LO:DY:a	!	!	!	!	!
(24ggLL	pp	(8e-L	pp pp	(24B-LL	.	[4.ggg	pp	.
24ee-	.	.	.	24b-	.	.	.	.
24ffJJ	.	.	.	24B-JJ	.	.	.	.
24ggLL	.	8b-J)	.	24b-LL	.	.	.	.
24aa-	.	.	.	24B-	.	.	.	.
24bb-JJ	.	.	.	24b-JJ	.	.	.	.
24cccLL	.	16g'LL	.	24B-LL	.	.	.	.
24ddd	.	.	.	24b-	.	.	.	.
.	.	16e-'JJ	.	.	.	.	.	.
24eee-JJ	.	.	.	24B-JJ	.	.	.	.
24fffLL	.	(16B-LL	.	24b-LL	.	(8ggg]	.	V7(6)
24eee-	.	.	.	24B-	.	.	.	.
.	.	[16a-JJ)	.	.	.	.	.	.
24dddJJ	.	.	.	24b-JJ	.	.	.	.
24cccLL	.	4a-]	.	24B-LL	.	4aaa-	.	V7
24bb-	.	.	.	24b-	.	.	.	.
24aa-JJ	.	.	.	24B-JJ	.	.	.	.
24ggLL	.	.	.	24b-LL	.	.	.	.
24aa-	.	.	.	24B-	.	.	.	.
24ffJJ)	.	.	.	24b-JJ)	.	.	.	.
=270	=270	=270	=270	=270	=270	=270	=270	=270
(24ggLL	.	(8e-L	.	(24B-LL	.	4.ggg	.	I
24ee-	.	.	.	24b-	.	.	.	.
24ffJJ	.	.	.	24B-JJ	.	.	.	.
24ggLL	.	8b-J)	.	24b-LL	.	.	.	.
24aa-	.	.	.	24B-	.	.	.	.
24bb-JJ	.	.	.	24b-JJ	.	.	.	.
24cccLL	.	16g'LL	.	24B-LL	.	.	.	.
24ddd	.	.	.	24b-	.	.	.	.
.	.	16e-'JJ	.	.	.	.	.	.
24eee-JJ	.	.	.	24B-JJ	.	.	.	.
24fffLL	.	(16AnLL	.	24ccLL	.	4fffn	.	V65/V
24eee-	.	.	.	24c	.	.	.	.
.	.	[16anJJ)	.	.	.	.	.	.
24dddJJ	.	.	.	24ccJJ	.	.	.	.
24cccLL	.	4a]	.	24cLL	.	.	.	.
24bb-	.	.	.	24cc	.	.	.	.
24aanJJ	.	.	.	24cJJ	.	.	.	.
24ggLL	.	.	.	24ccLL	.	24eee-LL	.	.
24ff	.	.	.	24c	.	24fff	.	.
24ee-JJ)	.	.	.	24ccJJ)	.	24gggJJ)	.	.
=271	=271	=271	=271	=271	=271	=271	=271	=271
!	!	!LO:TX:a:i:t=cresc.	!	!	!	!	!	!
!LO:TX:b:i:t=cresc.	!	!LO:TX:b:i:t=cresc.	!	!	!	!LO:TX:b:i:t=cresc.	!	!
(24ee-LL	.	(16B-LL	.	8G	.	(16ggLL	.	I6
24eee-	.	.	.	.	.	.	.	.
.	.	16b-JJ)	.	.	.	16ggg)	.	.
24ee-JJ	.	.	.	.	.	.	.	.
24eee-LL	.	(16BnLL	.	8r	.	(16gg	.	I+6
24ee-	.	.	.	.	.	.	.	.
.	.	16bnJJ)	.	.	.	16gggJJ)	.	.
24eee-JJ	.	.	.	.	.	.	.	.
24ee-LL	.	8r	.	(16gLL	.	8r	.	.
24eee-	.	.	.	.	.	.	.	.
.	.	.	.	16ggJJ)	.	.	.	.
24ee-JJ)	.	.	.	.	.	.	.	.
(24eee-LL	.	(16BLL	.	8r	.	(16aa-LL	.	.
24ee-	.	.	.	.	.	.	.	.
.	.	16bJJ)	.	.	.	16aaa-)	.	.
24eee-JJ	.	.	.	.	.	.	.	.
24ee-LL	.	(16cLL	.	8r	.	(16aa-	.	IV6
24eee-	.	.	.	.	.	.	.	.
.	.	16ccJJ)	.	.	.	16aaa-JJ)	.	.
24ee-JJ	.	.	.	.	.	.	.	.
24eee-LL	.	8r	.	(16a-LL	.	8r	.	.
24ee-	.	.	.	.	.	.	.	.
.	.	.	.	16aa-JJ)	.	.	.	.
24eee-JJ)	.	.	.	.	.	.	.	.
=272	=272	=272	=272	=272	=272	=272	=272	=272
(24ee-LL	.	(16A-XLL	.	8r	.	(16ffnLL	.	.
24eee-	.	.	.	.	.	.	.	.
.	.	16a-XJJ)	.	.	.	16fffn)	.	.
24ee-JJ	.	.	.	.	.	.	.	.
24eee-LL	.	(16AnLL	.	8r	.	(16ff#X	.	viio6/iii
24ee-	.	.	.	.	.	.	.	.
.	.	16anJJ)	.	.	.	16fff#XJJ)	.	.
24eee-JJ	.	.	.	.	.	.	.	.
24ee-LL	.	8r	.	(16f#XLL	.	8r	.	.
24eee-	.	.	.	.	.	.	.	.
.	.	.	.	16ff#XJJ)	.	.	.	.
24ee-JJ)	.	.	.	.	.	.	.	.
(24eee-LL	.	(16ALL	.	8r	.	(16ff#LL	.	.
24ee-	.	.	.	.	.	.	.	.
.	.	16aJJ)	.	.	.	16fff#)	.	.
24eee-JJ	.	.	.	.	.	.	.	.
24ee-LL	.	(16B-XLL	.	8r	.	(16gg	.	I64
24eee-	.	.	.	.	.	.	.	.
.	.	16b-XJJ)	.	.	.	16gggJJ)	.	.
24ee-JJ	.	.	.	.	.	.	.	.
24eee-LL	.	8r	.	(16gLL	.	8r	.	.
24ee-	.	.	.	.	.	.	.	.
.	.	.	.	16ggJJ)	.	.	.	.
24eee-JJ)	.	.	.	.	.	.	.	.
=273	=273	=273	=273	=273	=273	=273	=273	=273
(16BB-LL	.	(24E-LL	.	(16gLL	.	(8ee-L	.	I6
.	.	24e-	.	.	.	.	.	.
16B-JJ)	.	.	.	16ggJJ)	.	.	.	.
.	.	24E-JJ	.	.	.	.	.	.
(16BBnLL	.	24e-LL	.	(16gLL	.	8eee-J)	.	I+64
.	.	24E-	.	.	.	.	.	.
16BnJJ)	.	.	.	16ggJJ)	.	.	.	.
.	.	24e-JJ	.	.	.	.	.	.
8r	.	24E-LL	.	8r	.	16bb-'LL	.	.
.	.	24e-	.	.	.	.	.	.
.	.	.	.	.	.	16gg'JJ	.	.
.	.	24E-JJ	.	.	.	.	.	.
(16BBLL	.	24e-LL	.	(16gLL	.	(8e-L	.	.
.	.	24E-	.	.	.	.	.	.
16BJJ)	.	.	.	16ggJJ)	.	.	.	.
.	.	24e-JJ	.	.	.	.	.	.
(16CLL	.	24E-LL	.	(16a-LL	.	8ee-J)	.	IV6
.	.	24e-	.	.	.	.	.	.
16cJJ)	.	.	.	16aa-JJ)	.	.	.	.
.	.	24E-JJ	.	.	.	.	.	.
8r	.	24e-LL	.	8r	.	16cc'LL	.	.
.	.	24E-	.	.	.	.	.	.
.	.	.	.	.	.	16a-'JJ	.	.
.	.	24e-JJ)	.	.	.	.	.	.
=274	=274	=274	=274	=274	=274	=274	=274	=274
(16AA-LL	.	(24E-LL	.	(16fnLL	.	(8ee-L	.	ii65
.	.	24e-	.	.	.	.	.	.
16A-JJ)	.	.	.	16ffnJJ)	.	.	.	.
.	.	24E-JJ	.	.	.	.	.	.
(16AAnLL	.	24e-LL	.	(16f#XLL	.	8eee-J)	.	#viio65/iii
.	.	24E-	.	.	.	.	.	.
16AnJJ)	.	.	.	16ff#XJJ)	.	.	.	.
.	.	24e-JJ	.	.	.	.	.	.
8r	.	24E-LL	.	8r	.	16ccc'LL	.	.
.	.	24e-	.	.	.	.	.	.
.	.	.	.	.	.	16ff#X'JJ	.	.
.	.	24E-JJ	.	.	.	.	.	.
(16AALL	.	24e-LL	.	(16f#LL	.	(8e-L	.	.
.	.	24E-	.	.	.	.	.	.
16AJJ)	.	.	.	16ff#JJ)	.	.	.	.
.	.	24e-JJ	.	.	.	.	.	.
(16BB-XLL	.	24E-LL	.	(16gLL	.	8ee-J)	.	I64
.	.	24e-	.	.	.	.	.	.
16B-XJJ)	.	.	.	16ggJJ)	.	.	.	.
.	.	24E-JJ	.	.	.	.	.	.
8r	.	24e-LL	.	8r	.	16b-'LL	.	.
.	.	24E-	.	.	.	.	.	.
.	.	.	.	.	.	16g'JJ	.	.
.	.	24e-JJ)	.	.	.	.	.	.
=275	=275	=275	=275	=275	=275	=275	=275	=275
(16GG-XLL	.	(24E-LL	.	(8e-L	.	(8ee-L	.	i6
.	.	24e-	.	.	.	.	.	.
16G-XJJ)	.	.	.	.	.	.	.	.
.	.	24E-JJ	.	.	.	.	.	.
(16GGnLL	.	24e-LL	.	8ee-J)	.	8eee-J)	.	I+6
.	.	24E-	.	.	.	.	.	.
16GnJJ)	.	.	.	.	.	.	.	.
.	.	24e-JJ	.	.	.	.	.	.
8r	.	24E-LL	.	16bn'LL	.	16bbn'LL	.	.
.	.	24e-	.	.	.	.	.	.
.	.	.	.	16g'JJ	.	16gg'JJ	.	.
.	.	24E-JJ	.	.	.	.	.	.
(16GGLL	.	24e-LL	.	8r	.	(8e-L	.	.
.	.	24E-	.	.	.	.	.	.
16GJJ)	.	.	.	.	.	.	.	.
.	.	24e-JJ	.	.	.	.	.	.
(16AA-XLL	.	24E-LL	.	8ccc'	.	8ee-J)	.	IV
.	.	24e-	.	.	.	.	.	.
16A-XJJ)	.	.	.	.	.	.	.	.
.	.	24E-JJ	.	.	.	.	.	.
8r	.	24e-LL	.	16ee-'LL	.	16cc'LL	.	.
.	.	24E-	.	.	.	.	.	.
.	.	.	.	16cc'JJ	.	16a-'JJ	.	.
.	.	24e-JJ)	.	.	.	.	.	.
=276	=276	=276	=276	=276	=276	=276	=276	=276
(16FFLL	.	(24E-LL	.	(8e-L	.	(8ee-L	.	V7/V
.	.	24e-	.	.	.	.	.	.
16FJJ)	.	.	.	.	.	.	.	.
.	.	24E-JJ	.	.	.	.	.	.
(16FF#XLL	.	24e-LL	.	8ee-J)	.	8eee-J)	.	#viio7/iii
.	.	24E-	.	.	.	.	.	.
16F#XJJ)	.	.	.	.	.	.	.	.
.	.	24e-JJ	.	.	.	.	.	.
8r	.	24E-LL	.	16cc'LL	.	16ccc'LL	.	.
.	.	24e-	.	.	.	.	.	.
.	.	.	.	16an'JJ	.	16aan'JJ	.	.
.	.	24E-JJ	.	.	.	.	.	.
(16FF#LL	.	24e-LL	.	(8e-L	.	(8ee-L	.	I6
.	.	24E-	.	.	.	.	.	.
16F#JJ)	.	.	.	.	.	.	.	.
.	.	24e-JJ	.	.	.	.	.	.
(16GGLL	.	24E-LL	.	8ee-J)	.	8eee-J)	.	.
.	.	24e-	.	.	.	.	.	.
16GJJ)	.	.	.	.	.	.	.	.
.	.	24E-JJ	.	.	.	.	.	.
24EE-LL	.	24e-LL	.	16b-X'LL	.	16gg'LL	.	.
24EE-	.	24E-	.	.	.	.	.	.
.	.	.	.	16B-'JJ 16g	.	16ggg'JJ	.	.
24EE-JJ	.	24e-JJ)	.	.	.	.	.	.
=277	=277	=277	=277	=277	=277	=277	=277	=277
24EE-LL	ff	(24gnLL	ff	(24b-LL	ff	(8eee-L	ff	I[I6
24EE-	.	24e-	.	24g	.	.	.	.
24EE-JJ	.	24fnJJ	.	24a-JJ	.	.	.	.
24EE-LL	.	24gLL	.	24b-LL	.	8bbb-)	.	.
24EE-	.	24a-	.	24cc	.	.	.	.
24EE-JJ	.	24b-JJ	.	24ddJJ	.	.	.	.
24EE-LL	.	24ccLL	.	24ee-LL	.	16ggg'L	.	.
24EE-	.	24dd	.	24ff	.	.	.	.
.	.	.	.	.	.	16eee-'JJ	.	.
24EE-JJ	.	24ee-JJ	.	24ggJJ	.	.	.	.
24EE-LL	.	24ddLL	.	24ffLL	.	4.aaa-	.	.
24EE-	.	24cc	.	24ee-	.	.	.	.
24EE-JJ	.	24b-JJ	.	24ddJJ	.	.	.	.
24EE-LL	.	24a-LL	.	24ccLL	.	.	.	.
24EE-	.	24g	.	24b-	.	.	.	.
24EE-JJ	.	24fJJ	.	24a-JJ	.	.	.	.
24EE-LL	.	24e-LL	.	24gLL	.	.	.	.
24EE-	.	24f	.	24a-	.	.	.	.
24EE-JJ	.	24dJJ)	.	24fJJ)	.	.	.	.
=278	=278	=278	=278	=278	=278	=278	=278	=278
24EE-LL	.	(24B-LL	.	(24gLL	.	(8eee-L	.	I64
24EE-	.	24G	.	24e-	.	.	.	.
24EE-JJ	.	24A-JJ	.	24fJJ	.	.	.	.
24EE-LL	.	24B-LL	.	24gLL	.	8bbb-)	.	.
24EE-	.	24c	.	24a-	.	.	.	.
24EE-JJ	.	24dJJ	.	24b-JJ	.	.	.	.
24EE-LL	.	24e-LL	.	24ccLL	.	16ggg'L	.	.
24EE-	.	24f	.	24dd	.	.	.	.
.	.	.	.	.	.	16eee-'JJ	.	.
24EE-JJ	.	24gJJ)	.	24ee-JJ)	.	.	.	.
24EE-LL	sf	24ccLL	sf	24g-XLL	sf	4.aaan	.	#viio2/V
24EE-	.	24cc	.	24g-	.	.	.	.
24EE-JJ	.	24ccJJ	.	24g-JJ	.	.	.	.
24EE-LL	.	24ccLL	.	24g-LL	.	.	.	.
24EE-	.	24cc	.	24g-	.	.	.	.
24EE-JJ	.	24ccJJ	.	24g-JJ	.	.	.	.
24EE-LL	.	24ccLL	.	24g-LL	.	.	.	.
24EE-	.	24cc	.	24g-	.	.	.	.
24EE-JJ	.	24ccJJ	.	24g-JJ	.	.	.	.
=279	=279	=279	=279	=279	=279	=279	=279	=279
24EE-LL	sf	24B-LL 24a-	sf	24fLL	sf	(8bbb-L	.	V7
24EE-	.	24B- 24a-	.	24f	.	.	.	.
24EE-JJ	.	24B-JJ 24a-	.	24fJJ	.	.	.	.
24EE-LL	.	24B-LL 24a-	.	24fLL	.	8cccc)	.	.
24EE-	.	24B- 24a-	.	24f	.	.	.	.
24EE-JJ	.	24B-JJ 24a-	.	24fJJ	.	.	.	.
24EE-LL	.	24B-LL 24a-	.	24fLL	.	16aaa-X'L	.	.
24EE-	.	24B- 24a-	.	24f	.	.	.	.
.	.	.	.	.	.	16fff'JJ	.	.
24EE-JJ	sf	24B-JJ 24a-	.	24fJJ	.	.	.	.
24EE-LL	sf	24B-LL 24f	.	24a-LL	sf	(8eee-L	.	.
24EE-	.	24B- 24f	.	24a-	.	.	.	.
24EE-JJ	.	24B-JJ 24f	.	24a-JJ	.	.	.	.
24EE-LL	.	24B-LL 24f	.	24a-LL	.	8ddd)	.	.
24EE-	.	24B- 24f	.	24a-	.	.	.	.
24EE-JJ	.	24B-JJ 24f	.	24a-JJ	.	.	.	.
24EE-LL	.	24B-LL 24f	.	24a-LL	.	16ccc'L	.	.
24EE-	.	24B- 24f	.	24a-	.	.	.	.
.	.	.	.	.	.	16bb-'JJ	.	.
24EE-JJ	.	24B-JJ 24f	.	24a-JJ	.	.	.	.
=280	=280	=280	=280	=280	=280	=280	=280	=280
24EE-LL	sf sf	24B-LL 24f	sf	24A-LL 24a-	.	(8cccL	.	.
24EE-	.	24B- 24f	.	24A- 24a-	.	.	.	.
24EE-JJ	.	24B-JJ 24f	.	24A-JJ 24a-	.	.	.	.
24EE-LL	.	24B-LL 24f	.	24A-LL 24a-	.	8ddd)	.	.
24EE-	.	24B- 24f	.	24A- 24a-	.	.	.	.
24EE-JJ	.	24B-JJ 24f	.	24A-JJ 24a-	.	.	.	.
24EE-LL	.	24B-LL 24f	.	24A-LL 24a-	.	16eee-'L	.	.
24EE-	.	24B- 24f	.	24A- 24a-	.	.	.	.
.	.	.	.	.	.	16fff'JJ	.	.
24EE-JJ	.	24B-JJ 24f	.	24A-JJ 24a-	.	.	.	.
24EE-LL	sf sf	24B-LL 24f	sf	24A-LL 24a-	.	(8gggL	.	.
24EE-	.	24B- 24f	.	24A- 24a-	.	.	.	.
24EE-JJ	.	24B-JJ 24f	.	24A-JJ 24a-	.	.	.	.
24EE-LL	.	24B-LL 24f	.	24A-LL 24a-	.	8aaa-)	.	.
24EE-	.	24B- 24f	.	24A- 24a-	.	.	.	.
24EE-JJ	.	24B-JJ 24f	.	24A-JJ 24a-	.	.	.	.
24EE-LL	.	24B-LL 24f	.	24A-LL 24a-	.	8fff'J	.	.
24EE-	.	24B- 24f	.	24A- 24a-	.	.	.	.
24EE-JJ	.	24B-JJ 24f	.	24A-JJ 24a-	.	.	.	.
=281	=281	=281	=281	=281	=281	=281	=281	=281
24EE-LL	p	(24B-LL 24e-	p	(24GnLL 24gn	p	(8e-L	p	I]
24e-	.	24E-	.	24G	.	.	.	.
24e-JJ	.	24FJJ	.	24A-JJ	.	.	.	.
24e-LL	.	24GLL	.	24B-LL	.	8b-)	.	.
24e-	.	24A-	.	24c	.	.	.	.
24e-JJ	.	24B-JJ	.	24dJJ	.	.	.	.
24e-LL	.	24cLL	.	24e-LL	.	16g'L	.	.
24e-	.	24d	.	24f	.	.	.	.
.	.	.	.	.	.	16e-'JJ	.	.
24e-JJ	.	24e-JJ	.	24gJJ	.	.	.	.
!LO:TX:b:i:t=cresc.	!	!	!	!	!	!	!	!
!LO:TX:a:i:t=cresc.	!	!	!	!LO:TX:b:i:t=cresc.	!	!	!	!
(24e-LL	.	24fLL	.	24a-LL	.	(16B-LL	.	V43
24d	.	24g	.	24b-	.	.	.	.
!	!	!	!	!	!	!LO:TX:b:i:t=cresc.	!	!
.	.	.	.	.	.	[16a-JJ)	.	.
24cJJ	.	24a-JJ	.	24ccJJ	.	.	.	.
24B-LL	.	24b-LL	.	24ddLL	.	4a-]	.	.
24A-	.	24cc	.	24ee-	.	.	.	.
24GJJ	.	24ddJJ	.	24ffJJ	.	.	.	.
24FLL	.	24ee-LL	.	24ggLL	.	.	.	.
24E-	.	24ff	.	24aa-	.	.	.	.
24FJJ	.	24ddJJ	.	24ffJJ	.	.	.	.
=282	=282	=282	=282	=282	=282	=282	=282	=282
24GLL)	.	24b-LL)	.	24bb-LL)	.	(8e-L	.	I6
(24EE-	.	(24G	.	(24g	.	.	.	.
24FFJJ	.	24A-JJ	.	24a-JJ	.	.	.	.
24GGLL	.	24B-LL	.	24b-LL	.	8b-)	.	.
24AA-	.	24c	.	24cc	.	.	.	.
24BB-JJ	.	24dJJ	.	24ddJJ	.	.	.	.
24CLL	.	24e-LL	.	24ee-LL	.	16g'L	.	.
24D	.	24f	.	24ff	.	.	.	.
.	.	.	.	.	.	16e-'JJ	.	.
24E-JJ)	.	24gJJ	.	24ggJJ	.	.	.	.
24FFLL	.	24e-LL	.	24ggLL	.	(16anLL	.	V7/V
24FF	.	24cc	.	24ee-	.	.	.	.
.	.	.	.	.	.	[16aanJJ)	.	.
24FFJJ	.	24b-JJ	.	24ddJJ	.	.	.	.
24FFLL	.	24anLL	.	24ccLL	.	4aa]	.	.
24FF	.	24g	.	24b-	.	.	.	.
24FFJJ	.	24fJJ	.	24anJJ	.	.	.	.
24FFLL	.	24e-LL	.	24gLL	.	.	.	.
24FF	.	24d	.	24f	.	.	.	.
24FFJJ	.	24cJJ)	.	24e-JJ)	.	.	.	.
=283	=283	=283	=283	=283	=283	=283	=283	=283
24FFLL	.	24B-LL	.	24A-XLL 24d	.	(16b-LL	.	V43
24FF	.	24B-	.	24A- 24d	.	.	.	.
.	.	.	.	.	.	16bb-)	.	.
24FFJJ	.	24B-JJ	.	24A-JJ 24d	.	.	.	.
24FFLL	.	24B-LL	.	24A-LL 24d	.	(16cc	.	.
24FF	.	24B-	.	24A- 24d	.	.	.	.
.	.	.	.	.	.	16ccc)	.	.
24FFJJ	.	24B-JJ	.	24A-JJ 24d	.	.	.	.
24FFLL	.	24B-LL	.	24A-LL 24d	.	16aa-X'	.	.
24FF	.	24B-	.	24A- 24d	.	.	.	.
.	.	.	.	.	.	16ff'JJ	.	.
24FFJJ	.	24B-JJ	.	24A-JJ 24d	.	.	.	.
24FFLL	.	24B-LL	.	24A-LL 24d	.	(16ee-LL	.	.
24FF	.	24B-	.	24A- 24d	.	.	.	.
.	.	.	.	.	.	16eee-)	.	.
24FFJJ	.	24B-JJ	.	24A-JJ 24d	.	.	.	.
24FFLL	.	24B-LL	.	24A-LL 24d	.	(16dd	.	.
24FF	.	24B-	.	24A- 24d	.	.	.	.
.	.	.	.	.	.	16ddd)	.	.
24FFJJ	.	24B-JJ	.	24A-JJ 24d	.	.	.	.
24FFLL	.	24B-LL	.	24A-LL 24d	.	16ccc'	.	.
24FF	.	24B-	.	24A- 24d	.	.	.	.
.	.	.	.	.	.	16bb-'JJ	.	.
24FFJJ	.	24B-JJ	.	24A-JJ 24d	.	.	.	.
=284	=284	=284	=284	=284	=284	=284	=284	=284
24FFLL	.	24B-LL	.	24A-XLL 24d	.	(16ccLL	.	.
24FF	.	24B-	.	24A- 24d	.	.	.	.
.	.	.	.	.	.	16ccc)	.	.
24FFJJ	.	24B-JJ	.	24A-JJ 24d	.	.	.	.
24FFLL	.	24B-LL	.	24A-LL 24d	.	(16dd	.	.
24FF	.	24B-	.	24A- 24d	.	.	.	.
.	.	.	.	.	.	16ddd)	.	.
24FFJJ	.	24B-JJ	.	24A-JJ 24d	.	.	.	.
24FFLL	.	24B-LL	.	24A-LL 24d	.	16eee-'	.	.
24FF	.	24B-	.	24A- 24d	.	.	.	.
.	.	.	.	.	.	16fff'JJ	.	.
24FFJJ	.	24B-JJ	.	24A-JJ 24d	.	.	.	.
24FFLL	f	24B-LL	f	24A-LL 24d	f	(16ggLL	f	.
24FF	.	24B-	.	24A- 24d	.	.	.	.
.	.	.	.	.	.	16ggg)	.	.
24FFJJ	.	24B-JJ	.	24A-JJ 24d	.	.	.	.
24FFLL	.	24B-LL	.	24A-LL 24d	.	(16aa-	.	.
24FF	.	24B-	.	24A- 24d	.	.	.	.
.	.	.	.	.	.	16aaa-)	.	.
24FFJJ	.	24B-JJ	.	24A-JJ 24d	.	.	.	.
24FFLL	.	24B-LL	.	24A-LL 24d	.	(16ff	.	.
24FF	.	24B-	.	24A- 24d	.	.	.	.
.	.	.	.	.	.	16fffJJ)	.	.
24FFJJ	.	24B-JJ	.	24A-JJ 24d	.	.	.	.
=285	=285	=285	=285	=285	=285	=285	=285	=285
8GG'L	p	8B-'L	p	(8bb-L	p	8eee-'L	p	I6
8AA-'J	.	8A-'J	.	8cccJ)	.	8eee-'J	.	IV
8r	.	8r	.	16aa-'LL	.	8r	.	.
.	.	.	.	16ff'JJ	.	.	.	.
8BB-'L	.	8b-'L	.	(8ee-L	.	8ggg'L	.	V(64)
8B-'J	.	8b-'J	.	8ffJ)	.	8aaa-'J	.	V7
8r	.	8r	.	16dd'LL	.	8r	.	.
.	.	.	.	16b-'JJ	.	.	.	.
=286	=286	=286	=286	=286	=286	=286	=286	=286
8G'L	.	(8b-L	.	8ee-'L	.	2.r	.	V7
8A-'J	.	8cc)	.	8ee-'J	.	.	.	.
8r	.	16a-'L	.	8r	.	.	.	.
.	.	16f'JJ	.	.	.	.	.	.
8B-'L	.	(8e-L	.	8gg'L	.	.	.	.
8B-'J	.	8f)	.	8aa-'J	.	.	.	.
8r	.	16d'L	.	8r	.	.	.	.
.	.	16B-'JJ	.	.	.	.	.	.
=287	=287	=287	=287	=287	=287	=287	=287	=287
(8B-L	.	8b-'L	.	(8b-L	.	4r	.	.
8c)	.	8b-'J	.	8ccJ)	.	.	.	.
16A-'L	.	8r	.	16a-'LL	.	8r	.	.
16F'JJ	.	.	.	16f'JJ	.	.	.	.
!LO:TX:b:i:t=cresc.	!	!LO:TX:b:i:t=cresc.	!	!LO:TX:b:i:t=cresc.	!	!LO:TX:b:i:t=cresc.	!	!
(8E-L	.	8b-'L	.	(8gL	.	(8ggL	.	I
8F)	.	8b-'J	.	8a-J)	.	8aa-J)	.	V43
16D'L	.	8r	.	16f'LL	.	16ff'LL	.	.
16BB-'JJ	.	.	.	16d'JJ	.	16dd'JJ	.	.
=288	=288	=288	=288	=288	=288	=288	=288	=288
(8GGL	.	(8b-L	.	(8ee-'L	.	(8bb-L	.	I6
8AA-J)	.	8ccJ)	.	8ee-'J)	.	8cccJ)	.	IV
16FF'LL	.	16a-'LL	.	16ee-'LL	.	16aa-'LL	.	.
16BB-'JJ	.	16f'JJ	.	16dd'JJ	.	16ff'JJ	.	.
(8BBnL	.	(8gL	.	(8ggL	.	(8eee-L	.	I+64
8BB-XJ)	.	8a-J)	.	8aa-J)	.	8fffJ)	.	V7
16BB-'LL	.	16f'LL	.	16ff'LL	.	16bb-'LL	.	.
16BB-'JJ	.	16A-'JJ 16f	.	16dd'JJ	.	16ddd'JJ	.	.
=289	=289	=289	=289	=289	=289	=289	=289	=289
24E-LL	ff	24GLL	ff	24B-LL	ff	24eee-LL	ff	I[I6
!	!	!	!	!	!	!LO:TX:a:i:t=  non legato	!	!
24E-	.	24G	.	24B-	.	24ddd	.	.
24E-JJ	.	24GJJ	.	24B-JJ	.	24cccJJ	.	.
24E-LL	.	24GLL	.	24B-LL	.	24bb-LL	.	.
24E-	.	24G	.	24B-	.	24aa-	.	.
24E-JJ	.	24GJJ	.	24B-JJ	.	24ggJJ	.	.
24E-LL	.	24A-LL	.	24cLL	.	24cccLL	.	IV
24E-	.	24A-	.	24c	.	24bb-	.	.
24E-JJ	.	24A-JJ	.	24cJJ	.	24aa-JJ	.	.
24E-LL	.	24A-LL	.	24cLL	.	24ggLL	.	.
24E-	.	24A-	.	24c	.	24ff	.	.
24E-JJ	.	24A-JJ	.	24cJJ	.	24ee-JJ	.	.
24E-LL	.	24FLL	.	24dLL	.	24ddLL	.	V43
24E-	.	24F	.	24d	.	24cc	.	.
24E-JJ	.	24FJJ	.	24dJJ	.	24b-JJ	.	.
24E-LL	.	24FLL	.	24dLL	.	24ccLL	.	.
24E-	.	24F	.	24d	.	24dd	.	.
24E-JJ	.	24FJJ	.	24dJJ	.	24b-JJ	.	.
=290	=290	=290	=290	=290	=290	=290	=290	=290
!LO:TX:a:i:t=non legato	!	!LO:TX:a:i:t=non legato	!	!LO:TX:a:i:t=non legato	!	!	!	!
24e-LL	.	24e-LL	.	24ee-LL	.	24ee-LL	.	I]
24d	.	24d	.	24dd	.	24dd	.	.
24cJJ	.	24cJJ	.	24ccJJ	.	24ccJJ	.	.
24B-LL	.	24b-LL	.	24b-LL	.	24b-LL	.	.
24A-	.	24a-	.	24a-	.	24a-	.	.
24GJJ	.	24gJJ	.	24gJJ	.	24gJJ	.	.
24cLL	.	24ccLL	.	24ccLL	.	24ccLL	.	.
24B-	.	24b-	.	24b-	.	24b-	.	.
24A-JJ	.	24a-JJ	.	24a-JJ	.	24a-JJ	.	.
24GLL	.	24gLL	.	24gLL	.	24gLL	.	.
24F	.	24f	.	24f	.	24f	.	.
24E-JJ	.	24e-JJ	.	24e-JJ	.	24e-JJ	.	.
24DLL	.	24dLL	.	24dLL	.	24dLL	.	.
24C	.	24c	.	24c	.	24c	.	.
24BB-JJ	.	24B-JJ	.	24B-JJ	.	24B-JJ	.	.
24CLL	.	24cLL	.	24cLL	.	24cLL	.	.
24D	.	24d	.	24d	.	24d	.	.
24BB-JJ	.	24B-JJ	.	24B-JJ	.	24B-JJ	.	.
=291	=291	=291	=291	=291	=291	=291	=291	=291
8E-L	.	8e-L	.	8e-L	.	8e-L	.	I\\
8e-J	.	8E-J 8G	.	8GJ 8e- 8ee-	.	8GJ 8e- 8ee-	.	.
8r	.	8r	.	8r	.	8r	.	.
8r	.	8r	.	8r	.	8r	.	.
8B-	.	8B- 8d	.	8d 8b- 8ff	.	8d 8b- 8ff	.	V
8r	.	8r	.	8r	.	8r	.	.
=292	=292	=292	=292	=292	=292	=292	=292	=292
8r	.	8r	.	8r	.	8r	.	.
8E-	.	8e-	.	8e- 8b- 8gg	.	8e- 8b- 8gg	.	I
8r	.	8r	.	8r	.	8r	.	.
8r	.	8r	.	8r	.	8r	.	.
8BB-	.	8B-	.	8d 8b- 8ff	.	8b- 8bb-	.	V
8r	.	8r	.	8r	.	8r	.	.
=293	=293	=293	=293	=293	=293	=293	=293	=293
2.r	.	(24gLL	pp	(24ee-LL	pp	(24b-LL	pp	I6
.	.	24a-	.	24ff	.	24cc	.	.
.	.	24gJJ)	.	24ee-JJ	.	24b-JJ	.	.
.	.	24a-LL	.	24ddLL	.	24cc-XLL	.	.
.	.	24a-	.	24ee-	.	24ccn	.	.
.	.	24a-JJ	.	24ddJJ	.	24cc-XJJ	.	.
.	.	(24gLL	.	24ee-LL	.	24b-LL	.	.
.	.	24a-	.	24ff	.	24ccn	.	.
.	.	24gJJ)	.	24ee-JJ)	.	24b-JJ)	.	.
.	.	(24gLL	.	(24ee-LL	.	(24b-LL	.	.
.	.	24a-	.	24ff	.	24cc-X	.	.
.	.	24gJJ)	.	24ee-JJ	.	24b-JJ	.	.
.	.	24a-LL	.	24ddLL	.	24cc-LL	.	.
.	.	24a-	.	24ee-	.	24ccn	.	.
.	.	24a-JJ	.	24ddJJ	.	24cc-XJJ	.	.
.	.	8g	.	8ee-)	.	8b-)	.	.
=294	=294	=294	=294	=294	=294	=294	=294	=294
!LO:TX:a:i:t=sempre pp	!	!	!	!LO:TX:a:i:t=sempre pp	!	!LO:TX:b:i:t=sempre pp	!	!
(8EE-L	pp	24B-LL 24g	.	24ee-LL	.	(24b-LL	.	I
.	.	24B- 24g	.	24g 24b-	.	24ccn	.	.
.	.	24B-JJ 24g	.	24gJJ 24b-	.	24ddJJ	.	.
8BB-J)	.	24B-LL 24g	.	24gLL 24b-	.	24ee-LL	.	.
.	.	24B- 24g	.	24g 24b-	.	24ff	.	.
.	.	24B-JJ 24g	.	24gJJ 24b-	.	24ggJJ	.	.
16GG'LL	.	24B-LL 24g	.	24gLL 24b-	.	24aa-LL	.	.
.	.	24B- 24g	.	24g 24b-	.	24bb-	.	.
16EE-'JJ	.	.	.	.	.	.	.	.
.	.	24B-JJ 24g	.	24gJJ 24b-	.	24cccJJ)	.	.
4.AA-	.	(8B-L	.	(24ffLL	.	4.ddd	.	V2
.	.	.	.	24ee-	.	.	.	.
.	.	.	.	24ddJJ	.	.	.	.
.	.	8fJ)	.	24ccLL	.	.	.	.
.	.	.	.	24b-	.	.	.	.
.	.	.	.	24a-JJ	.	.	.	.
.	.	16d'LL	.	24gLL	.	.	.	.
.	.	.	.	24a-	.	.	.	.
.	.	16B-'JJ	.	.	.	.	.	.
.	.	.	.	24fJJ)	.	.	.	.
=295	=295	=295	=295	=295	=295	=295	=295	=295
2.r	.	(24gLL	.	(24ee-LL	.	(24b-LL	.	I6
.	.	24a-	.	24ff	.	24cc	.	.
.	.	24gJJ)	.	24ee-JJ	.	24b-JJ	.	.
.	.	24a-LL	.	24ddLL	.	24cc-XLL	.	.
.	.	24a-	.	24ee-	.	24ccn	.	.
.	.	24a-JJ	.	24ddJJ	.	24cc-XJJ	.	.
.	.	(24gLL	.	24ee-LL	.	24b-LL	.	.
.	.	24a-	.	24ff	.	24ccn	.	.
.	.	24gJJ)	.	24ee-JJ)	.	24b-JJ)	.	.
.	.	(24gLL	.	(24ee-LL	.	(24b-LL	.	.
.	.	24a-	.	24ff	.	24cc-X	.	.
.	.	24gJJ)	.	24ee-JJ	.	24b-JJ	.	.
.	.	24a-LL	.	24ddLL	.	24cc-LL	.	.
.	.	24a-	.	24ee-	.	24ccn	.	.
.	.	24a-JJ	.	24ddJJ	.	24cc-XJJ	.	.
.	.	8g	.	8ee-)	.	8b-)	.	.
=296	=296	=296	=296	=296	=296	=296	=296	=296
(24E-LL	pp	24gLL	pp	24ee-LL	pp	(8ee-L	.	I
24F	.	24g	.	24b-	.	.	.	.
24GJJ	.	24gJJ	.	24b-JJ	.	.	.	.
24A-LL	.	24gLL	.	24b-LL	.	8bb-J)	.	.
24B-	.	24g	.	24b-	.	.	.	.
24cJJ	.	24gJJ	.	24b-JJ	.	.	.	.
24dLL	.	24gLL	.	24b-LL	.	16gg'LL	.	.
24e-)	.	24g	.	24b-	.	.	.	.
.	.	.	.	.	.	16ee-'JJ	.	.
24e-JJ	.	24gJJ	.	24b-JJ	.	.	.	.
24e-LL	.	24g-XLL	.	24b-LL	.	(4.aan	.	#viio43/V
24e-	.	24g-	.	24b-	.	.	.	.
24e-JJ	.	24g-JJ	.	24b-JJ	.	.	.	.
24e-LL	.	24g-LL	.	24b-LL	.	.	.	.
24e-	.	24g-	.	24b-	.	.	.	.
24e-JJ	.	24g-JJ	.	24b-JJ	.	.	.	.
24e-LL	.	24g-LL	.	24b-LL	.	.	.	.
24e-	.	24g-	.	24b-	.	.	.	.
24e-JJ	.	24g-JJ	.	24b-JJ	.	.	.	.
=297	=297	=297	=297	=297	=297	=297	=297	=297
24e-LL	.	24gnLL	.	24b-LL	.	4bb-)	.	I
24e-	.	24g	.	24b-	.	.	.	.
24e-JJ	.	24gJJ	.	24b-JJ	.	.	.	.
24e-LL	.	24gLL	.	24b-LL	.	.	.	.
24e-	.	24g	.	24b-	.	.	.	.
24e-JJ	.	24gJJ	.	24b-JJ	.	.	.	.
24e-LL	.	24gLL	.	24b-LL	.	8r	.	.
24e-	.	24g	.	24b-	.	.	.	.
24e-JJ	.	24gJJ	.	24b-JJ	.	.	.	.
!LO:TX:b:i:t=cresc.	!	!LO:TX:b:i:t=cresc.	!	!LO:TX:b:i:t=cresc.	!	!LO:TX:b:i:t=cresc.	!	!
24e-LL	.	24g-XLL	.	24b-LL	.	4.aan	.	#viio43/V
24e-	.	24g-	.	24b-	.	.	.	.
24e-JJ	.	24g-JJ	.	24b-JJ	.	.	.	.
24e-LL	.	24g-LL	.	24b-LL	.	.	.	.
24e-	.	24g-	.	24b-	.	.	.	.
24e-JJ	.	24g-JJ	.	24b-JJ	.	.	.	.
24e-LL	.	24g-LL	.	24b-LL	.	.	.	.
24e-	.	24g-	.	24b-	.	.	.	.
24e-JJ	.	24g-JJ	.	24b-JJ	.	.	.	.
=298	=298	=298	=298	=298	=298	=298	=298	=298
4BB-	f	4B-	f	4b-	f	4bb-	f	V
8r	.	8r	.	8r	.	8r	.	.
4B-	ff	4B- 4f 4dd	ff	4b- 4ff	ff	4b- 4ff 4ddd	ff	.
8r	.	8r	.	8r	.	8r	.	.
=299	=299	=299	=299	=299	=299	=299	=299	=299
4EE-	.	4G 4e- 4ee-	.	4b- 4gg	.	4b- 4gg 4eee-	.	I\\
8r	.	8r	.	8r	.	8r	.	.
4r;	.	4r;	.	4r;	.	4r;	.	.
8r	.	8r	.	8r	.	8r	.	.
==	==	==	==	==	==	==	==	==
*-	*-	*-	*-	*-	*-	*-	*-	*-
!!!system-decoration: [(s1,s2,s3,s4)]
